; generated by Slic3r 1.1.1 on 2014-04-28 at 15:08:08

; perimeters extrusion width = 0.40mm
; infill extrusion width = 0.67mm
; solid infill extrusion width = 0.67mm
; top infill extrusion width = 0.67mm

G21 ; set units to millimeters
M107
M104 S200 ; set temperature
G28 ; home all axes
G1 Z5 F5000 ; lift nozzle

M109 S200 ; wait for temperature to be reached
G90 ; use absolute coordinates
G92 E0
M82 ; use absolute distances for extrusion
G1 F1800.000 E-1.00000
G92 E0
G1 Z0.400 F7800.000
G1 X46.827 Y45.720 F7800.000
G1 E1.00000 F1800.000
G1 X48.583 Y44.220 E1.09331 F918.764
G1 X50.743 Y43.405 E1.18663
G1 X52.000 Y43.286 E1.23766
G1 X55.000 Y43.286 E1.35889
G1 X57.275 Y43.683 E1.45221
G1 X59.280 Y44.827 E1.54552
G1 X60.333 Y45.921 E1.60691
G1 X73.333 Y62.921 E2.47179
G1 X74.400 Y64.969 E2.56510
G1 X74.714 Y67.000 E2.64814
G1 X74.714 Y70.000 E2.76938
G1 X74.317 Y72.275 E2.86269
G1 X73.173 Y74.280 E2.95600
G1 X71.417 Y75.780 E3.04931
G1 X69.257 Y76.595 E3.14263
G1 X68.000 Y76.714 E3.19366
G1 X52.000 Y76.714 E3.84027
G1 X49.725 Y76.317 E3.93358
G1 X47.720 Y75.173 E4.02689
G1 X46.220 Y73.417 E4.12021
G1 X45.405 Y71.257 E4.21352
G1 X45.286 Y70.000 E4.26455
G1 X45.286 Y50.000 E5.07281
G1 X45.683 Y47.725 E5.16612
G1 X46.797 Y45.772 E5.25701
G1 F1800.000 E4.25701
G92 E0
G1 X53.828 Y52.117 F7800.000
G1 E1.00000 F1800.000
G1 X54.216 Y51.985 E1.01656 F918.764
G1 X66.172 Y67.619 E1.81193
G1 X66.172 Y68.172 E1.83427
G1 X53.828 Y68.172 E2.33310
G1 X53.828 Y52.177 E2.97952
G1 X54.449 Y51.114 F7800.000
G1 X66.886 Y67.377 E3.80690 F918.764
G1 X66.886 Y68.886 E3.86787
G1 X53.114 Y68.886 E4.42443
G1 X53.114 Y51.114 E5.14264
G1 X54.389 Y51.114 E5.19417
G1 X54.802 Y50.400 F7800.000
G1 X67.600 Y67.135 E6.04559 F643.135
G1 X67.600 Y69.600 E6.14519
G1 X52.400 Y69.600 E6.75947
G1 X52.400 Y50.400 E7.53541
G1 X54.742 Y50.400 E7.63007
G1 X54.767 Y50.798 F7800.000
G1 X54.500 Y53.213 F7800.000
G1 X54.623 Y53.336 E7.63709 F689.073
G1 X54.326 Y54.082 E7.66952
G1 X58.011 Y57.767 E7.88012
G1 X54.326 Y58.252 F7800.000
G1 X63.748 Y67.674 E8.41863 F689.073
G1 X64.791 Y67.674 E8.46076
G1 X54.326 Y57.209 E9.05885
G1 X54.326 Y56.167 E9.10098
G1 X64.787 Y66.628 E9.69886
G1 X62.706 Y67.674 F7800.000
G1 X54.326 Y59.294 E10.17779 F689.073
G1 X54.326 Y60.337 E10.21992
G1 X61.663 Y67.674 E10.63927
G1 X60.621 Y67.674 E10.68140
G1 X54.326 Y61.379 E11.04116
G1 X54.326 Y62.422 E11.08329
G1 X59.578 Y67.674 E11.38348
G1 X58.536 Y67.674 E11.42561
G1 X54.326 Y63.464 E11.66622
G1 X54.326 Y64.507 E11.70835
G1 X57.493 Y67.674 E11.88938
G1 X56.451 Y67.674 E11.93151
G1 X54.326 Y65.549 E12.05295
G1 X54.326 Y66.591 E12.09508
G1 X55.409 Y67.674 E12.15695
G1 X54.366 Y67.674 E12.19908
G1 X54.326 Y67.634 E12.20137
G1 X61.399 Y62.197 F7800.000
G1 X54.326 Y55.124 E12.60561 F689.073
M106 S255
G1 F1800.000 E11.60561
G92 E0
G1 Z0.600 F7800.000
G1 X54.506 Y51.000 F7800.000
G1 E1.00000 F1800.000
G1 X67.000 Y67.339 E1.23278 F1029.615
G1 X67.000 Y69.000 E1.25159
G1 X53.000 Y69.000 E1.41004
G1 X53.000 Y51.000 E1.61375
G1 X54.446 Y51.000 E1.63012
G1 X54.703 Y50.600 F7800.000
G1 X67.400 Y67.203 E1.86667 F1029.615
G1 X67.400 Y69.400 E1.89154
G1 X52.600 Y69.400 E2.05904
G1 X52.600 Y50.600 E2.27181
G1 X54.643 Y50.600 E2.29494
G1 X54.901 Y50.200 F7800.000
G1 X67.800 Y67.068 E2.53526 F720.731
G1 X67.800 Y69.800 E2.56619
G1 X52.200 Y69.800 E2.74274
G1 X52.200 Y50.200 E2.96457
G1 X54.841 Y50.200 E2.99446
G1 X54.866 Y50.598 F7800.000
G1 X53.321 Y51.361 F7800.000
G1 X53.361 Y51.321 E2.99547 F772.211
G1 X54.262 Y51.321 E3.01148
G1 X53.321 Y52.262 E3.03514
G1 X53.321 Y53.163 E3.05116
G1 X54.701 Y51.784 E3.08584
G1 X55.091 Y52.295 E3.09727
G1 X53.321 Y54.064 E3.14177
G1 X53.321 Y54.965 E3.15778
G1 X55.482 Y52.805 E3.21210
G1 X55.872 Y53.316 E3.22352
G1 X53.321 Y55.866 E3.28765
G1 X53.321 Y56.767 E3.30367
G1 X56.263 Y53.826 E3.37762
G1 X56.653 Y54.337 E3.38904
G1 X53.321 Y57.668 E3.47281
G1 X53.321 Y58.569 E3.48883
G1 X57.043 Y54.847 E3.58240
G1 X57.434 Y55.358 E3.59383
G1 X53.321 Y59.471 E3.69723
G1 X53.321 Y60.372 E3.71324
G1 X57.824 Y55.869 E3.82646
G1 X58.215 Y56.379 E3.83788
G1 X53.321 Y61.273 E3.96091
G1 X53.321 Y62.174 E3.97693
G1 X58.605 Y56.890 E4.10977
G1 X58.996 Y57.400 E4.12120
G1 X53.321 Y63.075 E4.26386
G1 X53.321 Y63.976 E4.27988
G1 X59.386 Y57.911 E4.43235
G1 X59.777 Y58.421 E4.44378
G1 X53.321 Y64.877 E4.60607
G1 X53.321 Y65.778 E4.62209
G1 X60.167 Y58.932 E4.79420
G1 X60.557 Y59.443 E4.80563
G1 X53.321 Y66.679 E4.98755
G1 X53.321 Y67.580 E5.00357
G1 X60.948 Y59.953 E5.19531
G1 X61.338 Y60.464 E5.20674
G1 X53.321 Y68.481 E5.40830
G1 X54.024 Y68.679 E5.42128
G1 X61.729 Y60.974 E5.61498
G1 X62.119 Y61.485 E5.62641
G1 X54.925 Y68.679 E5.80727
G1 X55.826 Y68.679 E5.82329
G1 X62.510 Y61.995 E5.99131
G1 X62.900 Y62.506 E6.00274
G1 X56.727 Y68.679 E6.15793
G1 X57.628 Y68.679 E6.17395
G1 X63.290 Y63.017 E6.31630
G1 X63.681 Y63.527 E6.32773
G1 X58.529 Y68.679 E6.45724
G1 X59.431 Y68.679 E6.47326
G1 X64.071 Y64.038 E6.58994
G1 X64.462 Y64.548 E6.60136
G1 X60.332 Y68.679 E6.70521
G1 X61.233 Y68.679 E6.72122
G1 X64.852 Y65.059 E6.81223
G1 X65.243 Y65.570 E6.82366
G1 X62.134 Y68.679 E6.90182
G1 X63.035 Y68.679 E6.91784
G1 X65.633 Y66.080 E6.98317
G1 X66.024 Y66.591 E6.99460
G1 X63.936 Y68.679 E7.04710
G1 X64.837 Y68.679 E7.06311
G1 X66.414 Y67.101 E7.10277
G1 X66.679 Y67.738 E7.11502
G1 X65.738 Y68.679 E7.13868
G1 X66.639 Y68.679 E7.15470
G1 X66.679 Y68.639 E7.15571
G1 F1800.000 E6.15571
G92 E0
G1 Z0.800 F7800.000
G1 X67.000 Y69.000 F7800.000
G1 E1.00000 F1800.000
G1 X53.000 Y69.000 E1.15845 F991.147
G1 X53.000 Y51.000 E1.36217
G1 X54.506 Y51.000 E1.37921
G1 X67.000 Y67.339 E1.61199
G1 X67.000 Y68.940 E1.63012
G1 X67.400 Y69.400 F7800.000
G1 X52.600 Y69.400 E1.79762 F991.147
G1 X52.600 Y50.600 E2.01039
G1 X54.703 Y50.600 E2.03420
G1 X67.400 Y67.203 E2.27075
G1 X67.400 Y69.340 E2.29494
G1 X67.800 Y69.800 F7800.000
G1 X52.200 Y69.800 E2.47149 F693.803
G1 X52.200 Y50.200 E2.69332
G1 X54.901 Y50.200 E2.72389
G1 X67.800 Y67.068 E2.96422
G1 X67.800 Y69.740 E2.99446
G1 X67.454 Y69.600 F7800.000
G1 X66.348 Y67.014 F7800.000
G1 X53.321 Y53.988 E3.32196 F743.360
G1 X53.321 Y54.904 F7800.000
G1 X66.679 Y68.261 E3.65778 F743.360
G1 X66.181 Y68.679 E3.66934
G1 X53.321 Y55.819 E3.99264
G1 X53.321 Y56.735 E4.00892
G1 X65.265 Y68.679 E4.30920
G1 X64.349 Y68.679 E4.32547
G1 X53.321 Y57.651 E4.60273
G1 X53.321 Y58.566 E4.61901
G1 X63.434 Y68.679 E4.87325
G1 X62.518 Y68.679 E4.88953
G1 X53.321 Y59.482 E5.12074
G1 X53.321 Y60.398 E5.13702
G1 X61.602 Y68.679 E5.34521
G1 X60.687 Y68.679 E5.36149
G1 X53.321 Y61.313 E5.54667
G1 X53.321 Y62.229 E5.56294
G1 X59.771 Y68.679 E5.72510
G1 X58.855 Y68.679 E5.74138
G1 X53.321 Y63.145 E5.88051
G1 X53.321 Y64.060 E5.89679
G1 X57.940 Y68.679 E6.01290
G1 X57.024 Y68.679 E6.02917
G1 X53.321 Y64.976 E6.12226
G1 X53.321 Y65.892 E6.13854
G1 X56.108 Y68.679 E6.20861
G1 X55.193 Y68.679 E6.22489
G1 X53.321 Y66.807 E6.27194
G1 X53.321 Y67.723 E6.28822
G1 X54.277 Y68.679 E6.31224
G1 X53.361 Y68.679 E6.32852
G1 X53.321 Y68.639 E6.32953
G1 X63.372 Y63.123 F7800.000
G1 X53.321 Y53.073 E6.58221 F743.360
G1 X53.321 Y52.157 E6.59849
G1 X60.396 Y59.231 E6.77635
G1 X57.420 Y55.340 F7800.000
G1 X53.401 Y51.321 E6.87738 F743.360
G1 X54.444 Y51.448 E6.89606
G1 X54.317 Y51.321 E6.89925
G1 F1800.000 E5.89925
G92 E0
G1 Z1.000 F7800.000
G1 X54.506 Y51.000 F7800.000
G1 E1.00000 F1800.000
G1 X67.000 Y67.339 E1.23278 F738.610
G1 X67.000 Y69.000 E1.25159
G1 X53.000 Y69.000 E1.41004
G1 X53.000 Y51.000 E1.61375
G1 X54.446 Y51.000 E1.63012
G1 X54.703 Y50.600 F7800.000
G1 X67.400 Y67.203 E1.86667 F738.610
G1 X67.400 Y69.400 E1.89154
G1 X52.600 Y69.400 E2.05904
G1 X52.600 Y50.600 E2.27181
G1 X54.643 Y50.600 E2.29494
G1 X54.901 Y50.200 F7800.000
G1 X67.800 Y67.068 E2.53526 F600.000
G1 X67.800 Y69.800 E2.56619
G1 X52.200 Y69.800 E2.74274
G1 X52.200 Y50.200 E2.96457
G1 X54.841 Y50.200 E2.99446
G1 X54.866 Y50.598 F7800.000
G1 X54.902 Y52.080 F7800.000
G1 X54.219 Y52.763 E3.01163 F600.000
G1 X53.341 Y52.528 E3.02779
G1 X55.287 Y52.584 E3.06240
G1 X54.664 Y53.207 E3.07808
G1 X54.945 Y54.259 E3.09742
G1 X53.406 Y55.798 E3.13612
G1 X53.341 Y55.780 E3.13731
G1 X53.341 Y58.084 E3.17827
G1 X54.132 Y57.293 E3.19815
G1 X53.851 Y56.242 E3.21750
G1 X55.390 Y54.703 E3.25619
G1 X56.441 Y54.985 E3.27554
G1 X56.827 Y54.598 E3.28526
G1 X57.213 Y55.101 E3.29653
G1 X56.885 Y55.429 E3.30476
G1 X57.167 Y56.480 E3.32411
G1 X55.628 Y58.019 E3.36280
G1 X54.577 Y57.738 E3.38215
G1 X53.341 Y58.973 E3.41320
G1 X53.341 Y61.194 E3.45270
G1 X53.763 Y60.772 E3.46331
G1 X54.815 Y61.054 E3.48265
G1 X56.354 Y59.515 E3.52135
G1 X56.072 Y58.463 E3.54070
G1 X57.611 Y56.924 E3.57939
G1 X58.662 Y57.206 E3.59874
G1 X58.753 Y57.116 E3.60101
G1 X59.138 Y57.619 E3.61228
G1 X59.107 Y57.650 E3.61307
G1 X59.388 Y58.702 E3.63241
G1 X57.849 Y60.241 E3.67111
G1 X56.798 Y59.959 E3.69045
G1 X55.259 Y61.498 E3.72915
G1 X55.541 Y62.549 E3.74850
G1 X54.001 Y64.088 E3.78719
G1 X53.341 Y63.911 E3.79934
G1 X53.341 Y66.970 E3.85371
G1 X54.727 Y65.584 E3.88856
G1 X54.446 Y64.533 E3.90791
G1 X55.985 Y62.993 E3.94660
G1 X57.036 Y63.275 E3.96595
G1 X58.575 Y61.736 E4.00464
G1 X58.293 Y60.685 E4.02399
G1 X59.832 Y59.146 E4.06269
G1 X60.427 Y59.305 E4.07363
G1 X61.580 Y60.813 E4.10738
G1 X61.610 Y60.923 E4.10940
G1 X60.071 Y62.462 E4.14809
G1 X59.019 Y62.180 E4.16744
G1 X57.480 Y63.719 E4.20614
G1 X57.762 Y64.771 E4.22548
G1 X56.223 Y66.310 E4.26418
G1 X55.172 Y66.028 E4.28352
G1 X53.633 Y67.567 E4.32222
G1 X53.914 Y68.618 E4.34157
G1 X53.874 Y68.659 E4.34258
G1 X56.095 Y68.659 E4.38207
G1 X56.949 Y67.805 E4.40353
G1 X56.667 Y66.754 E4.42288
G1 X58.206 Y65.215 E4.46157
G1 X59.257 Y65.497 E4.48092
G1 X60.797 Y63.958 E4.51961
G1 X60.515 Y62.906 E4.53896
G1 X62.026 Y61.396 E4.57694
G1 X63.566 Y63.410 E4.62202
G1 X62.292 Y64.683 E4.65405
G1 X61.241 Y64.402 E4.67339
G1 X59.702 Y65.941 E4.71209
G1 X59.983 Y66.992 E4.73143
G1 X58.444 Y68.531 E4.77013
G1 X57.393 Y68.249 E4.78948
G1 X56.984 Y68.659 E4.79976
G1 X59.205 Y68.659 E4.83925
G1 X60.428 Y67.436 E4.86998
G1 X61.479 Y67.718 E4.88933
G1 X63.018 Y66.179 E4.92803
G1 X62.736 Y65.128 E4.94737
G1 X63.951 Y63.913 E4.97791
G1 X65.491 Y65.927 E5.02299
G1 X64.513 Y66.905 E5.04756
G1 X63.462 Y66.623 E5.06691
G1 X61.923 Y68.162 E5.10561
G1 X62.056 Y68.659 E5.11474
G1 X64.981 Y68.659 E5.16674
G1 X65.239 Y68.400 E5.17323
G1 X64.958 Y67.349 E5.19258
G1 X65.876 Y66.431 E5.21567
G1 F1800.000 E4.21567
G92 E0
G1 Z1.200 F7800.000
G1 X67.000 Y67.339 F7800.000
G1 E1.00000 F1800.000
G1 X67.000 Y69.000 E1.01880 F702.492
G1 X53.000 Y69.000 E1.17725
G1 X53.000 Y51.000 E1.38097
G1 X54.506 Y51.000 E1.39801
G1 X66.964 Y67.291 E1.63012
G1 X67.400 Y67.203 F7800.000
G1 X67.400 Y69.400 E1.65498 F702.492
G1 X52.600 Y69.400 E1.82248
G1 X52.600 Y50.600 E2.03526
G1 X54.703 Y50.600 E2.05906
G1 X67.364 Y67.155 E2.29494
G1 X67.800 Y67.068 F7800.000
G1 X67.800 Y69.800 E2.32586 F600.000
G1 X52.200 Y69.800 E2.50242
G1 X52.200 Y50.200 E2.72424
G1 X54.901 Y50.200 E2.75481
G1 X67.764 Y67.020 E2.99446
G1 X67.505 Y67.338 F7800.000
G1 X65.684 Y66.179 F7800.000
G1 X65.120 Y66.742 E3.00862 F600.000
G1 X65.634 Y68.659 E3.04389
G1 X63.583 Y63.432 F7800.000
G1 X63.668 Y63.751 E3.04977 F600.000
G1 X62.899 Y64.521 E3.06912
G1 X63.462 Y66.623 E3.10781
G1 X64.513 Y66.905 E3.12716
G1 X64.983 Y68.659 E3.15943
G1 X62.381 Y68.659 E3.20569
G1 X62.086 Y67.555 E3.22600
G1 X62.855 Y66.786 E3.24534
G1 X62.292 Y64.684 E3.28404
G1 X61.241 Y64.402 E3.30338
G1 X60.677 Y62.299 E3.34208
G1 X61.447 Y61.530 E3.36143
G1 X61.079 Y60.158 E3.38667
G1 X60.427 Y59.305 E3.40576
G1 X59.832 Y59.146 E3.41671
G1 X59.577 Y58.194 E3.43422
G1 X57.074 Y54.920 F7800.000
G1 X57.611 Y56.924 E3.47111 F600.000
G1 X58.662 Y57.206 E3.49045
G1 X59.226 Y59.308 E3.52915
G1 X58.456 Y60.078 E3.54850
G1 X59.019 Y62.180 E3.58719
G1 X60.071 Y62.462 E3.60654
G1 X60.634 Y64.564 E3.64523
G1 X59.864 Y65.334 E3.66458
G1 X60.428 Y67.436 E3.70327
G1 X61.479 Y67.718 E3.72262
G1 X61.731 Y68.659 E3.73993
G1 X59.129 Y68.659 E3.78619
G1 X59.051 Y68.369 E3.79153
G1 X59.821 Y67.599 E3.81087
G1 X59.257 Y65.497 E3.84957
G1 X58.206 Y65.215 E3.86892
G1 X57.643 Y63.113 E3.90761
G1 X58.412 Y62.343 E3.92696
G1 X57.849 Y60.241 E3.96565
G1 X56.798 Y59.959 E3.98500
G1 X56.235 Y57.857 E4.02369
G1 X57.004 Y57.087 E4.04304
G1 X56.441 Y54.985 E4.08174
G1 X55.390 Y54.703 E4.10108
G1 X54.826 Y52.601 E4.13978
G1 X55.095 Y52.332 E4.14653
G1 X53.341 Y52.528 E4.17789
G1 X54.219 Y52.763 E4.19405
G1 X54.783 Y54.866 E4.23275
G1 X54.013 Y55.635 E4.25209
G1 X54.577 Y57.738 E4.29079
G1 X55.628 Y58.019 E4.31013
G1 X56.191 Y60.122 E4.34883
G1 X55.422 Y60.891 E4.36818
G1 X55.985 Y62.994 E4.40687
G1 X57.036 Y63.275 E4.42622
G1 X57.599 Y65.378 E4.46491
G1 X56.830 Y66.147 E4.48426
G1 X57.393 Y68.249 E4.52295
G1 X58.444 Y68.531 E4.54230
G1 X58.479 Y68.659 E4.54465
G1 X56.540 Y68.659 E4.57912
G1 X56.786 Y68.412 E4.58531
G1 X56.223 Y66.310 E4.62401
G1 X55.172 Y66.028 E4.64335
G1 X54.608 Y63.926 E4.68205
G1 X55.378 Y63.156 E4.70140
G1 X54.815 Y61.054 E4.74009
G1 X53.763 Y60.772 E4.75944
G1 X53.341 Y59.197 E4.78843
G1 X53.341 Y58.528 F7800.000
G1 X53.970 Y57.900 E4.80422 F600.000
G1 X53.406 Y55.798 E4.84292
G1 X53.341 Y55.780 E4.84411
G1 X53.341 Y63.911 F7800.000
G1 X54.001 Y64.088 E4.85626 F600.000
G1 X54.565 Y66.191 E4.89496
G1 X53.795 Y66.960 E4.91430
G1 X54.250 Y68.659 E4.94556
G1 X53.600 Y68.659 E4.95713
G1 X53.341 Y67.694 E4.97489
G1 F1800.000 E3.97489
G92 E0
G1 Z1.400 F7800.000
G1 X53.000 Y69.000 F7800.000
G1 E1.00000 F1800.000
G1 X53.000 Y51.000 E1.20372 F719.874
G1 X54.506 Y51.000 E1.22076
G1 X67.000 Y67.339 E1.45355
G1 X67.000 Y69.000 E1.47235
G1 X53.060 Y69.000 E1.63012
G1 X52.600 Y69.400 F7800.000
G1 X52.600 Y50.600 E1.84289 F719.874
G1 X54.703 Y50.600 E1.86670
G1 X67.400 Y67.203 E2.10325
G1 X67.400 Y69.400 E2.12812
G1 X52.660 Y69.400 E2.29494
G1 X52.200 Y69.800 F7800.000
G1 X52.200 Y50.200 E2.51676 F600.000
G1 X54.901 Y50.200 E2.54734
G1 X67.800 Y67.068 E2.78766
G1 X67.800 Y69.800 E2.81858
G1 X52.260 Y69.800 E2.99446
G1 X52.400 Y69.454 F7800.000
G1 X54.065 Y68.659 F7800.000
G1 X53.914 Y68.618 E2.99723 F600.000
G1 X53.633 Y67.567 E3.01658
G1 X53.341 Y67.489 E3.02194
G1 X53.341 Y66.839 E3.03350
G1 X53.795 Y66.960 E3.04186
G1 X54.565 Y66.191 E3.06121
G1 X56.667 Y66.754 E3.09990
G1 X56.949 Y67.805 E3.11925
G1 X59.051 Y68.369 E3.15794
G1 X59.821 Y67.599 E3.17729
G1 X61.923 Y68.162 E3.21598
G1 X62.056 Y68.659 E3.22512
G1 X66.203 Y68.659 F7800.000
G1 X65.239 Y68.400 E3.24285 F600.000
G1 X64.958 Y67.349 E3.26220
G1 X62.855 Y66.786 E3.30090
G1 X62.086 Y67.555 E3.32024
G1 X59.983 Y66.992 E3.35894
G1 X59.702 Y65.941 E3.37828
G1 X57.599 Y65.378 E3.41698
G1 X56.830 Y66.147 E3.43633
G1 X54.727 Y65.584 E3.47502
G1 X54.446 Y64.533 E3.49437
G1 X53.341 Y64.237 E3.51469
G1 X53.341 Y63.586 E3.52626
G1 X54.608 Y63.926 E3.54958
G1 X55.378 Y63.156 E3.56893
G1 X57.480 Y63.719 E3.60762
G1 X57.762 Y64.771 E3.62697
G1 X59.864 Y65.334 E3.66566
G1 X60.634 Y64.564 E3.68501
G1 X62.736 Y65.128 E3.72370
G1 X63.018 Y66.179 E3.74305
G1 X65.120 Y66.742 E3.78174
G1 X65.684 Y66.179 E3.79591
G1 X63.868 Y63.805 E3.84904
G1 X63.668 Y63.751 E3.85271
G1 X62.899 Y64.521 E3.87206
G1 X60.797 Y63.958 E3.91076
G1 X60.515 Y62.906 E3.93010
G1 X58.412 Y62.343 E3.96880
G1 X57.643 Y63.113 E3.98814
G1 X55.541 Y62.549 E4.02684
G1 X55.259 Y61.498 E4.04619
G1 X53.341 Y60.984 E4.08148
G1 X53.341 Y60.334 E4.09304
G1 X55.422 Y60.891 E4.13133
G1 X56.191 Y60.122 E4.15067
G1 X58.293 Y60.685 E4.18937
G1 X58.575 Y61.736 E4.20872
G1 X60.677 Y62.299 E4.24741
G1 X61.447 Y61.530 E4.26676
G1 X62.304 Y61.760 E4.28253
G1 X61.678 Y60.941 E4.30084
G1 X61.610 Y60.923 E4.30210
G1 X61.580 Y60.813 E4.30413
G1 X60.740 Y59.714 E4.32872
G1 X59.226 Y59.308 E4.35659
G1 X58.456 Y60.078 E4.37594
G1 X56.354 Y59.515 E4.41463
G1 X56.072 Y58.463 E4.43398
G1 X53.970 Y57.900 E4.47267
G1 X53.341 Y58.528 E4.48847
G1 X53.341 Y56.106 E4.53154
G1 X53.851 Y56.242 E4.54091
G1 X54.132 Y57.293 E4.56026
G1 X56.235 Y57.857 E4.59895
G1 X57.004 Y57.087 E4.61830
G1 X59.107 Y57.650 E4.65699
G1 X59.388 Y58.702 E4.67634
G1 X60.114 Y58.896 E4.68971
