; generated by Slic3r 1.1.1 on 2014-05-02 at 15:33:33

; perimeters extrusion width = 0.40mm
; infill extrusion width = 0.67mm
; solid infill extrusion width = 0.67mm
; top infill extrusion width = 0.67mm

G21 ; set units to millimeters
M107
M104 S200 ; set temperature
G28 ; home all axes
G1 Z5 F5000 ; lift nozzle

M109 S200 ; wait for temperature to be reached
G90 ; use absolute coordinates
G92 E0
M82 ; use absolute distances for extrusion
G1 F1800.000 E-1.00000
G92 E0
G1 Z0.400 F7800.000
G1 X13.333 Y2.921 F7800.000
G1 E1.00000 F1800.000
G1 X14.400 Y4.969 E1.09331 F921.554
G1 X14.714 Y7.000 E1.17635
G1 X14.714 Y10.000 E1.29759
G1 X14.317 Y12.275 E1.39090
G1 X13.173 Y14.280 E1.48421
G1 X11.417 Y15.780 E1.57753
G1 X9.257 Y16.595 E1.67084
G1 X8.000 Y16.714 E1.72187
G1 X-8.000 Y16.714 E2.36848
G1 X-10.275 Y16.317 E2.46179
G1 X-12.280 Y15.173 E2.55511
G1 X-13.780 Y13.417 E2.64842
G1 X-14.595 Y11.257 E2.74173
G1 X-14.714 Y10.000 E2.79276
G1 X-14.714 Y-10.000 E3.60102
G1 X-14.317 Y-12.275 E3.69434
G1 X-13.173 Y-14.280 E3.78765
G1 X-11.417 Y-15.780 E3.88096
G1 X-9.257 Y-16.595 E3.97427
G1 X-8.000 Y-16.714 E4.02531
G1 X-5.000 Y-16.714 E4.14654
G1 X-2.725 Y-16.317 E4.23986
G1 X-0.720 Y-15.173 E4.33317
G1 X0.333 Y-14.079 E4.39456
G1 X13.297 Y2.874 E5.25701
G1 F1800.000 E4.25701
G92 E0
G1 X6.172 Y7.619 F7800.000
G1 E1.00000 F1800.000
G1 X6.172 Y8.172 E1.02234 F921.554
G1 X-6.172 Y8.172 E1.52117
G1 X-6.172 Y-7.883 E2.17001
G1 X-5.784 Y-8.015 E2.18657
G1 X6.135 Y7.571 E2.97952
G1 X6.886 Y7.377 F7800.000
G1 X6.886 Y8.886 E3.04049 F921.554
G1 X-6.886 Y8.886 E3.59704
G1 X-6.886 Y-8.886 E4.31525
G1 X-5.551 Y-8.886 E4.36921
G1 X6.849 Y7.330 E5.19417
G1 X7.600 Y7.135 F7800.000
G1 X7.600 Y9.600 E5.29378 F645.088
G1 X-7.600 Y9.600 E5.90806
G1 X-7.600 Y-9.600 E6.68399
G1 X-5.198 Y-9.600 E6.78107
G1 X7.564 Y7.088 E7.63007
G1 X7.305 Y7.405 F7800.000
G1 X1.399 Y2.197 F7800.000
G1 X-5.674 Y-4.876 E8.03431 F691.166
G1 X-5.674 Y-3.833 E8.07644
G1 X4.787 Y6.628 E8.67431
G1 X4.791 Y7.674 E8.71659
G1 X-5.674 Y-2.791 E9.31468
G1 X-5.674 Y-1.748 F7800.000
G1 X3.748 Y7.674 E9.85319 F691.166
G1 X2.706 Y7.674 E9.89532
G1 X-5.674 Y-0.706 E10.37425
G1 X-5.674 Y0.337 E10.41638
G1 X1.663 Y7.674 E10.83573
G1 X0.621 Y7.674 E10.87786
G1 X-5.674 Y1.379 E11.23763
G1 X-5.674 Y2.422 E11.27976
G1 X-0.422 Y7.674 E11.57995
G1 X-1.464 Y7.674 E11.62208
G1 X-5.674 Y3.464 E11.86269
G1 X-5.674 Y4.507 E11.90482
G1 X-2.507 Y7.674 E12.08585
G1 X-3.549 Y7.674 E12.12797
G1 X-5.674 Y5.549 E12.24942
G1 X-5.674 Y6.591 E12.29155
G1 X-4.591 Y7.674 E12.35342
G1 X-5.634 Y7.674 E12.39555
G1 X-5.674 Y7.634 E12.39783
G1 X-1.989 Y-2.233 F7800.000
G1 X-5.674 Y-5.918 E12.60844 F691.166
G1 X-5.377 Y-6.664 E12.64087
G1 X-5.500 Y-6.787 E12.64789
M106 S255
G1 F1800.000 E11.64789
G92 E0
G1 Z0.600 F7800.000
G1 X-5.494 Y-9.000 F7800.000
G1 E1.00000 F1800.000
G1 X7.000 Y7.339 E1.23278 F1029.615
G1 X7.000 Y9.000 E1.25159
G1 X-7.000 Y9.000 E1.41004
G1 X-7.000 Y-9.000 E1.61375
G1 X-5.554 Y-9.000 E1.63012
G1 X-5.297 Y-9.400 F7800.000
G1 X7.400 Y7.203 E1.86667 F1029.615
G1 X7.400 Y9.400 E1.89154
G1 X-7.400 Y9.400 E2.05904
G1 X-7.400 Y-9.400 E2.27181
G1 X-5.357 Y-9.400 E2.29494
G1 X-5.099 Y-9.800 F7800.000
G1 X7.800 Y7.068 E2.53526 F720.731
G1 X7.800 Y9.800 E2.56619
G1 X-7.800 Y9.800 E2.74274
G1 X-7.800 Y-9.800 E2.96457
G1 X-5.159 Y-9.800 E2.99446
G1 X-5.134 Y-9.402 F7800.000
G1 X-6.679 Y-8.639 F7800.000
G1 X-6.639 Y-8.679 E2.99547 F772.211
G1 X-5.738 Y-8.679 E3.01148
G1 X-6.679 Y-7.738 E3.03514
G1 X-6.679 Y-6.837 E3.05116
G1 X-5.299 Y-8.216 E3.08584
G1 X-4.909 Y-7.705 E3.09727
G1 X-6.679 Y-5.936 E3.14177
G1 X-6.679 Y-5.035 E3.15778
G1 X-4.518 Y-7.195 E3.21210
G1 X-4.128 Y-6.684 E3.22352
G1 X-6.679 Y-4.134 E3.28765
G1 X-6.679 Y-3.233 E3.30367
G1 X-3.737 Y-6.174 E3.37762
G1 X-3.347 Y-5.663 E3.38904
G1 X-6.679 Y-2.332 E3.47281
G1 X-6.679 Y-1.431 E3.48883
G1 X-2.957 Y-5.153 E3.58240
G1 X-2.566 Y-4.642 E3.59383
G1 X-6.679 Y-0.529 E3.69723
G1 X-6.679 Y0.372 E3.71324
G1 X-2.176 Y-4.131 E3.82646
G1 X-1.785 Y-3.621 E3.83788
G1 X-6.679 Y1.273 E3.96091
G1 X-6.679 Y2.174 E3.97693
G1 X-1.395 Y-3.110 E4.10977
G1 X-1.004 Y-2.600 E4.12120
G1 X-6.679 Y3.075 E4.26386
G1 X-6.679 Y3.976 E4.27988
G1 X-0.614 Y-2.089 E4.43235
G1 X-0.223 Y-1.579 E4.44378
G1 X-6.679 Y4.877 E4.60607
G1 X-6.679 Y5.778 E4.62209
G1 X0.167 Y-1.068 E4.79420
G1 X0.557 Y-0.557 E4.80563
G1 X-6.679 Y6.679 E4.98755
G1 X-6.679 Y7.580 E5.00357
G1 X0.948 Y-0.047 E5.19531
G1 X1.338 Y0.464 E5.20674
G1 X-6.679 Y8.481 E5.40830
G1 X-5.976 Y8.679 E5.42128
G1 X1.729 Y0.974 E5.61498
G1 X2.119 Y1.485 E5.62641
G1 X-5.075 Y8.679 E5.80727
G1 X-4.174 Y8.679 E5.82329
G1 X2.510 Y1.995 E5.99131
G1 X2.900 Y2.506 E6.00274
G1 X-3.273 Y8.679 E6.15793
G1 X-2.372 Y8.679 E6.17395
G1 X3.290 Y3.017 E6.31630
G1 X3.681 Y3.527 E6.32772
G1 X-1.471 Y8.679 E6.45724
G1 X-0.569 Y8.679 E6.47326
G1 X4.071 Y4.038 E6.58994
G1 X4.462 Y4.548 E6.60136
G1 X0.332 Y8.679 E6.70521
G1 X1.233 Y8.679 E6.72122
G1 X4.852 Y5.059 E6.81223
G1 X5.243 Y5.570 E6.82365
G1 X2.134 Y8.679 E6.90182
G1 X3.035 Y8.679 E6.91784
G1 X5.633 Y6.080 E6.98317
G1 X6.024 Y6.591 E6.99460
G1 X3.936 Y8.679 E7.04709
G1 X4.837 Y8.679 E7.06311
G1 X6.414 Y7.101 E7.10277
G1 X6.679 Y7.738 E7.11502
G1 X5.738 Y8.679 E7.13868
G1 X6.639 Y8.679 E7.15470
G1 X6.679 Y8.639 E7.15571
G1 F1800.000 E6.15571
G92 E0
G1 Z0.800 F7800.000
G1 X7.000 Y9.000 F7800.000
G1 E1.00000 F1800.000
G1 X-7.000 Y9.000 E1.15845 F991.147
G1 X-7.000 Y-9.000 E1.36217
G1 X-5.494 Y-9.000 E1.37921
G1 X7.000 Y7.339 E1.61199
G1 X7.000 Y8.940 E1.63012
G1 X7.400 Y9.400 F7800.000
G1 X-7.400 Y9.400 E1.79762 F991.147
G1 X-7.400 Y-9.400 E2.01039
G1 X-5.297 Y-9.400 E2.03420
G1 X7.400 Y7.203 E2.27075
G1 X7.400 Y9.340 E2.29494
G1 X7.800 Y9.800 F7800.000
G1 X-7.800 Y9.800 E2.47149 F693.803
G1 X-7.800 Y-9.800 E2.69332
G1 X-5.099 Y-9.800 E2.72389
G1 X7.800 Y7.068 E2.96422
G1 X7.800 Y9.740 E2.99446
G1 X7.454 Y9.600 F7800.000
G1 X6.348 Y7.015 F7800.000
G1 X-6.679 Y-6.012 E3.32196 F743.360
G1 X-6.679 Y-6.927 E3.33824
G1 X3.372 Y3.123 E3.59092
G1 X0.396 Y-0.769 F7800.000
G1 X-6.679 Y-7.843 E3.76879 F743.360
G1 X-5.683 Y-8.679 F7800.000
G1 X-5.556 Y-8.552 E3.77198 F743.360
G1 X-6.599 Y-8.679 E3.79066
G1 X-2.580 Y-4.660 E3.89169
G1 X-6.679 Y-5.096 F7800.000
G1 X6.679 Y8.261 E4.22751 F743.360
G1 X6.181 Y8.679 E4.23907
G1 X-6.679 Y-4.181 E4.56237
G1 X-6.679 Y-3.265 E4.57865
G1 X5.265 Y8.679 E4.87892
G1 X4.349 Y8.679 E4.89520
G1 X-6.679 Y-2.349 E5.17246
G1 X-6.679 Y-1.434 E5.18874
G1 X3.434 Y8.679 E5.44297
G1 X2.518 Y8.679 E5.45925
G1 X-6.679 Y-0.518 E5.69047
G1 X-6.679 Y0.398 E5.70675
G1 X1.602 Y8.679 E5.91494
G1 X0.687 Y8.679 E5.93122
G1 X-6.679 Y1.313 E6.11639
G1 X-6.679 Y2.229 E6.13267
G1 X-0.229 Y8.679 E6.29482
G1 X-1.145 Y8.679 E6.31110
G1 X-6.679 Y3.145 E6.45023
G1 X-6.679 Y4.060 E6.46651
G1 X-2.060 Y8.679 E6.58262
G1 X-2.976 Y8.679 E6.59890
G1 X-6.679 Y4.976 E6.69199
G1 X-6.679 Y5.892 E6.70827
G1 X-3.892 Y8.679 E6.77834
G1 X-4.807 Y8.679 E6.79462
G1 X-6.679 Y6.807 E6.84166
G1 X-6.679 Y7.723 E6.85794
G1 X-5.723 Y8.679 E6.88197
G1 X-6.639 Y8.679 E6.89825
G1 X-6.679 Y8.639 E6.89925
G1 F1800.000 E5.89925
G92 E0
G1 Z1.000 F7800.000
G1 X-7.000 Y9.000 F7800.000
G1 E1.00000 F1800.000
G1 X-7.000 Y-9.000 E1.20372 F738.432
G1 X-5.494 Y-9.000 E1.22076
G1 X7.000 Y7.339 E1.45355
G1 X7.000 Y9.000 E1.47235
G1 X-6.940 Y9.000 E1.63012
G1 X-7.400 Y9.400 F7800.000
G1 X-7.400 Y-9.400 E1.84289 F738.432
G1 X-5.297 Y-9.400 E1.86670
G1 X7.400 Y7.203 E2.10325
G1 X7.400 Y9.400 E2.12812
G1 X-7.340 Y9.400 E2.29494
G1 X-7.800 Y9.800 F7800.000
G1 X-7.800 Y-9.800 E2.51676 F600.000
G1 X-5.099 Y-9.800 E2.54734
G1 X7.800 Y7.068 E2.78766
G1 X7.800 Y9.800 E2.81858
G1 X-7.740 Y9.800 E2.99446
G1 X-7.600 Y9.454 F7800.000
G1 X5.858 Y6.407 F7800.000
G1 X4.937 Y7.328 E3.01762 F600.000
G1 X5.218 Y8.379 E3.03697
G1 X4.939 Y8.659 E3.04399
G1 X2.041 Y8.659 E3.09551
G1 X1.902 Y8.141 E3.10504
G1 X3.441 Y6.602 E3.14373
G1 X4.492 Y6.884 E3.16308
G1 X5.473 Y5.903 E3.18773
G1 X3.933 Y3.889 E3.23281
G1 X2.715 Y5.107 E3.26341
G1 X2.997 Y6.158 E3.28276
G1 X1.458 Y7.697 E3.32145
G1 X0.407 Y7.415 E3.34080
G1 X-0.837 Y8.659 E3.37206
G1 X-3.058 Y8.659 E3.41155
G1 X-2.628 Y8.228 E3.42237
G1 X-1.577 Y8.510 E3.44172
G1 X-0.038 Y6.971 E3.48041
G1 X-0.319 Y5.920 E3.49976
G1 X1.220 Y4.381 E3.53846
G1 X2.271 Y4.662 E3.55780
G1 X3.548 Y3.386 E3.58990
G1 X2.007 Y1.372 E3.63498
G1 X0.494 Y2.885 E3.67303
G1 X0.775 Y3.936 E3.69238
G1 X-0.764 Y5.475 E3.73107
G1 X-1.815 Y5.194 E3.75042
G1 X-3.354 Y6.733 E3.78911
G1 X-3.072 Y7.784 E3.80846
G1 X-3.947 Y8.659 E3.83045
G1 X-6.168 Y8.659 E3.86994
G1 X-6.107 Y8.597 E3.87149
G1 X-6.388 Y7.546 E3.89083
G1 X-4.849 Y6.007 E3.92953
G1 X-3.798 Y6.289 E3.94888
G1 X-2.259 Y4.750 E3.98757
G1 X-2.541 Y3.698 E4.00692
G1 X-1.002 Y2.159 E4.04561
G1 X0.049 Y2.441 E4.06496
G1 X1.589 Y0.902 E4.10365
G1 X1.556 Y0.782 E4.10586
G1 X0.412 Y-0.714 E4.13935
G1 X-0.189 Y-0.875 E4.15040
G1 X-1.728 Y0.664 E4.18910
G1 X-1.446 Y1.715 E4.20845
G1 X-2.985 Y3.254 E4.24714
G1 X-4.036 Y2.972 E4.26649
G1 X-5.575 Y4.511 E4.30518
G1 X-5.294 Y5.563 E4.32453
G1 X-6.659 Y6.928 E4.35885
G1 X-6.659 Y3.896 E4.41274
G1 X-6.020 Y4.067 E4.42450
G1 X-4.481 Y2.528 E4.46320
G1 X-4.762 Y1.477 E4.48254
G1 X-3.223 Y-0.062 E4.52124
G1 X-2.172 Y0.219 E4.54059
G1 X-0.633 Y-1.320 E4.57928
G1 X-0.915 Y-2.371 E4.59863
G1 X-0.881 Y-2.405 E4.59948
G1 X-1.266 Y-2.908 E4.61075
G1 X-1.359 Y-2.815 E4.61310
G1 X-2.410 Y-3.097 E4.63245
G1 X-3.949 Y-1.558 E4.67114
G1 X-3.667 Y-0.506 E4.69049
G1 X-5.207 Y1.033 E4.72918
G1 X-6.258 Y0.751 E4.74853
G1 X-6.659 Y1.152 E4.75861
G1 X-6.659 Y-1.070 E4.79810
G1 X-5.445 Y-2.284 E4.82862
G1 X-4.393 Y-2.002 E4.84797
G1 X-2.854 Y-3.541 E4.88666
G1 X-3.136 Y-4.592 E4.90601
G1 X-2.806 Y-4.922 E4.91431
G1 X-3.191 Y-5.426 E4.92558
G1 X-3.580 Y-5.036 E4.93538
G1 X-4.632 Y-5.318 E4.95472
G1 X-6.171 Y-3.779 E4.99342
G1 X-5.889 Y-2.728 E5.01276
G1 X-6.659 Y-1.958 E5.03212
G1 X-6.659 Y-4.235 E5.07260
G1 X-6.615 Y-4.223 E5.07340
G1 X-5.076 Y-5.762 E5.11210
G1 X-5.357 Y-6.814 E5.13144
G1 X-4.731 Y-7.440 E5.14719
G1 X-6.659 Y-7.488 E5.18147
G1 X-5.802 Y-7.258 E5.19724
G1 X-5.116 Y-7.944 E5.21448
G1 F1800.000 E4.21448
G92 E0
G1 Z1.200 F7800.000
G1 X-5.494 Y-9.000 F7800.000
G1 E1.00000 F1800.000
G1 X7.000 Y7.339 E1.23278 F685.960
G1 X7.000 Y9.000 E1.25159
G1 X-7.000 Y9.000 E1.41004
G1 X-7.000 Y-9.000 E1.61375
G1 X-5.554 Y-9.000 E1.63012
G1 X-5.297 Y-9.400 F7800.000
G1 X7.400 Y7.203 E1.86667 F685.960
G1 X7.400 Y9.400 E1.89154
G1 X-7.400 Y9.400 E2.05904
G1 X-7.400 Y-9.400 E2.27181
G1 X-5.357 Y-9.400 E2.29494
G1 X-5.099 Y-9.800 F7800.000
G1 X7.800 Y7.068 E2.53526 F600.000
G1 X7.800 Y9.800 E2.56619
G1 X-7.800 Y9.800 E2.74274
G1 X-7.800 Y-9.800 E2.96457
G1 X-5.159 Y-9.800 E2.99446
G1 X-5.134 Y-9.402 F7800.000
G1 X-4.924 Y-7.692 F7800.000
G1 X-5.195 Y-7.421 E3.00128 F600.000
G1 X-4.632 Y-5.318 E3.03997
G1 X-3.580 Y-5.036 E3.05932
G1 X-3.017 Y-2.934 E3.09802
G1 X-3.787 Y-2.165 E3.11736
G1 X-3.223 Y-0.062 E3.15606
G1 X-2.172 Y0.219 E3.17541
G1 X-1.609 Y2.322 E3.21410
G1 X-2.378 Y3.091 E3.23345
G1 X-1.815 Y5.194 E3.27214
G1 X-0.764 Y5.475 E3.29149
G1 X-0.200 Y7.578 E3.33018
G1 X-0.970 Y8.347 E3.34953
G1 X-0.886 Y8.659 E3.35526
G1 X-1.537 Y8.659 E3.36682
G1 X-1.577 Y8.510 E3.36956
G1 X-2.628 Y8.228 E3.38891
G1 X-3.191 Y6.126 E3.42760
G1 X-2.422 Y5.356 E3.44695
G1 X-2.985 Y3.254 E3.48564
G1 X-4.036 Y2.972 E3.50499
G1 X-4.600 Y0.870 E3.54368
G1 X-3.830 Y0.100 E3.56303
G1 X-4.393 Y-2.002 E3.60172
G1 X-5.445 Y-2.284 E3.62107
G1 X-6.008 Y-4.386 E3.65977
G1 X-5.238 Y-5.156 E3.67911
G1 X-5.802 Y-7.258 E3.71781
G1 X-6.659 Y-7.488 E3.73358
G1 X-6.659 Y-4.235 F7800.000
G1 X-6.615 Y-4.223 E3.73438 F600.000
G1 X-6.052 Y-2.121 E3.77308
G1 X-6.659 Y-1.514 E3.78834
G1 X-6.659 Y-0.745 E3.80201
G1 X-6.258 Y0.751 E3.82954
G1 X-5.207 Y1.033 E3.84889
G1 X-4.643 Y3.135 E3.88758
G1 X-5.413 Y3.905 E3.90693
G1 X-4.849 Y6.007 E3.94563
G1 X-3.798 Y6.289 E3.96497
G1 X-3.235 Y8.391 E4.00367
G1 X-3.503 Y8.659 E4.01040
G1 X-6.659 Y7.751 F7800.000
G1 X-6.416 Y8.659 E4.02709 F600.000
G1 X-5.765 Y8.659 E4.03866
G1 X-6.226 Y6.939 E4.07031
G1 X-5.456 Y6.170 E4.08965
G1 X-6.020 Y4.067 E4.12835
G1 X-6.659 Y3.896 E4.14011
G1 X-0.446 Y-1.837 F7800.000
G1 X-0.189 Y-0.875 E4.15781 F600.000
G1 X0.412 Y-0.714 E4.16887
G1 X1.056 Y0.127 E4.18770
G1 X1.426 Y1.509 E4.21313
G1 X0.656 Y2.278 E4.23248
G1 X1.220 Y4.381 E4.27117
G1 X2.271 Y4.662 E4.29052
G1 X2.834 Y6.765 E4.32921
G1 X2.065 Y7.534 E4.34856
G1 X2.366 Y8.659 E4.36925
G1 X1.715 Y8.659 E4.38082
G1 X1.458 Y7.697 E4.39852
G1 X0.407 Y7.415 E4.41787
G1 X-0.157 Y5.313 E4.45656
G1 X0.613 Y4.543 E4.47591
G1 X0.049 Y2.441 E4.51460
G1 X-1.002 Y2.159 E4.53395
G1 X-1.565 Y0.057 E4.57264
G1 X-0.796 Y-0.713 E4.59199
G1 X-1.359 Y-2.815 E4.63068
G1 X-2.410 Y-3.097 E4.65003
G1 X-2.950 Y-5.111 E4.68710
G1 X3.559 Y3.401 F7800.000
G1 X3.647 Y3.730 E4.69316 F600.000
G1 X2.878 Y4.500 E4.71251
G1 X3.441 Y6.602 E4.75120
G1 X4.492 Y6.884 E4.77055
G1 X4.968 Y8.659 E4.80322
G1 X5.618 Y8.659 E4.81478
G1 X5.099 Y6.721 E4.85044
G1 X5.665 Y6.155 E4.86467
G1 F1800.000 E3.86467
G92 E0
G1 Z1.400 F7800.000
G1 X7.000 Y7.339 F7800.000
G1 E1.00000 F1800.000
G1 X7.000 Y9.000 E1.01880 F720.061
G1 X-7.000 Y9.000 E1.17725
G1 X-7.000 Y-9.000 E1.38097
G1 X-5.494 Y-9.000 E1.39801
G1 X6.964 Y7.291 E1.63012
G1 X7.400 Y7.203 F7800.000
G1 X7.400 Y9.400 E1.65498 F720.061
G1 X-7.400 Y9.400 E1.82248
G1 X-7.400 Y-9.400 E2.03526
G1 X-5.297 Y-9.400 E2.05906
G1 X7.364 Y7.155 E2.29494
G1 X7.800 Y7.068 F7800.000
G1 X7.800 Y9.800 E2.32586 F600.000
G1 X-7.800 Y9.800 E2.50242
G1 X-7.800 Y-9.800 E2.72424
G1 X-5.099 Y-9.800 E2.75481
G1 X7.764 Y7.020 E2.99446
G1 X7.505 Y7.338 F7800.000
G1 X6.261 Y8.659 F7800.000
G1 X5.218 Y8.379 E3.01365 F600.000
G1 X4.937 Y7.328 E3.03299
G1 X2.834 Y6.765 E3.07169
G1 X2.065 Y7.534 E3.09104
G1 X-0.038 Y6.971 E3.12973
G1 X-0.319 Y5.920 E3.14908
G1 X-2.422 Y5.356 E3.18777
G1 X-3.191 Y6.126 E3.20712
G1 X-5.294 Y5.563 E3.24581
G1 X-5.575 Y4.511 E3.26516
G1 X-6.659 Y4.221 E3.28510
G1 X-6.659 Y3.571 E3.29666
G1 X-5.413 Y3.905 E3.31959
G1 X-4.643 Y3.135 E3.33894
G1 X-2.541 Y3.698 E3.37764
G1 X-2.259 Y4.750 E3.39698
G1 X-0.157 Y5.313 E3.43568
G1 X0.613 Y4.543 E3.45502
G1 X2.715 Y5.107 E3.49372
G1 X2.997 Y6.158 E3.51307
G1 X5.099 Y6.721 E3.55176
G1 X5.665 Y6.155 E3.56599
G1 X3.853 Y3.785 E3.61903
G1 X3.647 Y3.730 E3.62282
G1 X2.878 Y4.500 E3.64216
G1 X0.775 Y3.936 E3.68086
G1 X0.494 Y2.885 E3.70020
G1 X-1.609 Y2.322 E3.73890
G1 X-2.378 Y3.091 E3.75825
G1 X-4.481 Y2.528 E3.79694
G1 X-4.762 Y1.477 E3.81629
G1 X-6.659 Y0.969 E3.85119
G1 X-6.659 Y0.318 E3.86275
G1 X-4.600 Y0.870 E3.90065
G1 X-3.830 Y0.100 E3.92000
G1 X-1.728 Y0.664 E3.95869
G1 X-1.446 Y1.715 E3.97804
G1 X0.656 Y2.278 E4.01673
G1 X1.426 Y1.509 E4.03608
G1 X2.289 Y1.740 E4.05197
G1 X1.663 Y0.922 E4.07028
G1 X1.589 Y0.902 E4.07166
G1 X1.556 Y0.782 E4.07386
G1 X0.725 Y-0.305 E4.09819
G1 X-0.796 Y-0.713 E4.12618
G1 X-1.565 Y0.057 E4.14553
G1 X-3.667 Y-0.506 E4.18422
G1 X-3.949 Y-1.558 E4.20357
G1 X-6.052 Y-2.121 E4.24226
G1 X-6.659 Y-1.514 E4.25753
G1 X-6.659 Y-3.910 E4.30012
G1 X-6.171 Y-3.779 E4.30911
G1 X-5.889 Y-2.728 E4.32845
G1 X-3.787 Y-2.165 E4.36715
G1 X-3.017 Y-2.934 E4.38649
G1 X-0.915 Y-2.371 E4.42519
G1 X-0.633 Y-1.320 E4.44454
G1 X0.099 Y-1.123 E4.45801
G1 X-1.465 Y-3.169 E4.50379
G1 X-2.854 Y-3.541 E4.52937
G1 X-3.136 Y-4.592 E4.54871
G1 X-5.238 Y-5.156 E4.58741
G1 X-6.008 Y-4.386 E4.60676
G1 X-6.659 Y-4.560 E4.61873
G1 X-6.659 Y-7.162 E4.66499
G1 X-5.357 Y-6.814 E4.68894
G1 X-5.076 Y-5.762 E4.70828
G1 X-3.029 Y-5.214 E4.74596
G1 X-4.924 Y-7.692 E4.80142
G1 X-5.195 Y-7.421 E4.80824
G1 X-6.659 Y-7.813 E4.83518
G1 X-5.877 Y8.659 F7800.000
G1 X-6.107 Y8.597 E4.83940 F600.000
G1 X-6.388 Y7.546 E4.85875
G1 X-6.659 Y7.474 E4.86372
G1 X-6.659 Y6.823 E4.87528
G1 X-6.226 Y6.939 E4.88325
G1 X-5.456 Y6.170 E4.90260
G1 X-3.354 Y6.733 E4.94129
G1 X-3.072 Y7.784 E4.96064
G1 X-0.970 Y8.347 E4.99933
G1 X-0.200 Y7.578 E5.01868
G1 X1.902 Y8.141 E5.05738
G1 X2.041 Y8.659 E5.06690
G1 X-2.236 Y8.659 F7800.000
G1 X-3.235 Y8.391 E5.08528 F600.000
G1 X-3.503 Y8.659 E5.09201
G1 F1800.000 E4.09201
G92 E0
