; generated by Slic3r 1.1.1 on 2014-04-26 at 17:31:37

; perimeters extrusion width = 0.40mm
; infill extrusion width = 0.67mm
; solid infill extrusion width = 0.67mm
; top infill extrusion width = 0.67mm

G21 ; set units to millimeters
M107
M104 S200 ; set temperature
G28 ; home all axes
G1 Z5 F5000 ; lift nozzle

M109 S200 ; wait for temperature to be reached
G90 ; use absolute coordinates
G92 E0
M82 ; use absolute distances for extrusion
G1 F1800.000 E-1.00000
G92 E0
G1 Z0.400 F7800.000
G1 X83.253 Y106.751 F7800.000
G1 E1.00000 F1800.000
G1 X84.592 Y105.713 E1.06848 F1440.000
G1 X103.592 Y94.517 E1.95972
G1 X105.754 Y93.705 E2.05303
G1 X107.001 Y93.588 E2.10367
G1 X132.999 Y93.588 E3.15433
G1 X135.274 Y93.985 E3.24764
G1 X136.408 Y94.517 E3.29827
G1 X155.408 Y105.713 E4.18952
G1 X156.747 Y106.751 E4.25799
G1 X164.747 Y114.753 E4.71527
G1 X166.075 Y116.642 E4.80859
G1 X166.713 Y119.500 E4.92693
G1 X166.713 Y133.498 E5.49263
G1 X166.316 Y135.773 E5.58594
G1 X164.748 Y138.245 E5.70426
G1 X154.750 Y148.247 E6.27579
G1 X152.861 Y149.575 E6.36910
G1 X150.001 Y150.214 E6.48753
G1 X90.001 Y150.214 E8.91232
G1 X87.726 Y149.817 E9.00563
G1 X85.253 Y148.247 E9.12403
G1 X75.253 Y138.245 E9.69561
G1 X73.925 Y136.356 E9.78893
G1 X73.287 Y133.498 E9.90727
G1 X73.287 Y119.500 E10.47297
G1 X73.684 Y117.225 E10.56629
G1 X75.253 Y114.753 E10.68463
G1 X83.210 Y106.793 E11.13948
G1 F1800.000 E10.13948
G92 E0
G1 X135.820 Y123.759 F7800.000
G1 E1.00000 F1800.000
G1 X136.135 Y122.871 E1.03808 F1440.000
G1 X136.534 Y122.015 E1.07622
G1 X137.021 Y121.196 E1.11475
G1 X137.586 Y120.431 E1.15317
G1 X138.225 Y119.724 E1.19169
G1 X138.933 Y119.084 E1.23028
G1 X139.698 Y118.521 E1.26863
G1 X140.516 Y118.033 E1.30712
G1 X141.371 Y117.634 E1.34528
G1 X142.259 Y117.319 E1.38335
G1 X143.166 Y117.096 E1.42108
G1 X144.087 Y116.962 E1.45871
G1 X145.015 Y116.921 E1.49624
G1 X145.913 Y116.962 E1.53258
G1 X146.833 Y117.096 E1.57016
G1 X147.740 Y117.319 E1.60791
G1 X148.628 Y117.634 E1.64598
G1 X149.484 Y118.033 E1.68413
G1 X150.302 Y118.521 E1.72265
G1 X151.068 Y119.085 E1.76107
G1 X151.773 Y119.724 E1.79953
G1 X152.412 Y120.428 E1.83796
G1 X152.981 Y121.198 E1.87665
G1 X153.331 Y121.784 E1.90423
G1 X153.465 Y122.014 E1.91497
G1 X153.868 Y122.875 E1.95342
G1 X154.178 Y123.756 E1.99117
G1 X154.403 Y124.666 E2.02903
G1 X154.502 Y125.334 E2.05631
G1 X154.537 Y125.587 E2.06664
G1 X154.579 Y126.500 E2.10359
G1 X154.537 Y127.411 E2.14045
G1 X154.403 Y128.332 E2.17806
G1 X154.343 Y128.584 E2.18851
G1 X154.178 Y129.242 E2.21592
G1 X153.868 Y130.123 E2.25367
G1 X153.465 Y130.984 E2.29211
G1 X152.981 Y131.800 E2.33044
G1 X152.820 Y132.022 E2.34152
G1 X152.412 Y132.570 E2.36912
G1 X152.230 Y132.771 E2.38007
G1 X151.773 Y133.274 E2.40756
G1 X151.271 Y133.730 E2.43497
G1 X151.068 Y133.913 E2.44602
G1 X150.302 Y134.477 E2.48443
G1 X149.718 Y134.828 E2.51199
G1 X149.484 Y134.965 E2.52296
G1 X148.628 Y135.364 E2.56111
G1 X147.740 Y135.679 E2.59918
G1 X146.833 Y135.902 E2.63693
G1 X145.913 Y136.036 E2.67451
G1 X145.013 Y136.078 E2.71094
G1 X144.087 Y136.036 E2.74837
G1 X143.166 Y135.902 E2.78601
G1 X142.259 Y135.679 E2.82374
G1 X141.371 Y135.364 E2.86180
G1 X140.515 Y134.965 E2.89997
G1 X139.698 Y134.477 E2.93846
G1 X138.933 Y133.914 E2.97681
G1 X138.225 Y133.274 E3.01540
G1 X137.586 Y132.567 E3.05392
G1 X137.021 Y131.802 E3.09233
G1 X136.534 Y130.983 E3.13087
G1 X136.135 Y130.127 E3.16901
G1 X135.820 Y129.239 E3.20708
G1 X135.597 Y128.332 E3.24483
G1 X135.464 Y127.414 E3.28235
G1 X135.419 Y126.500 E3.31931
G1 X135.464 Y125.585 E3.35635
G1 X135.597 Y124.666 E3.39387
G1 X135.805 Y123.817 E3.42919
G1 X136.506 Y123.961 F7800.000
G1 X136.797 Y123.140 E3.46441 F1440.000
G1 X137.167 Y122.348 E3.49971
G1 X137.617 Y121.591 E3.53532
G1 X138.139 Y120.883 E3.57086
G1 X138.730 Y120.229 E3.60648
G1 X139.385 Y119.638 E3.64215
G1 X140.093 Y119.117 E3.67766
G1 X140.849 Y118.666 E3.71322
G1 X141.640 Y118.296 E3.74852
G1 X142.462 Y118.005 E3.78375
G1 X143.300 Y117.798 E3.81866
G1 X144.153 Y117.674 E3.85347
G1 X145.010 Y117.635 E3.88814
G1 X145.847 Y117.674 E3.92203
G1 X146.698 Y117.798 E3.95679
G1 X147.538 Y118.005 E3.99174
G1 X148.359 Y118.296 E4.02695
G1 X149.151 Y118.666 E4.06225
G1 X149.907 Y119.117 E4.09784
G1 X150.616 Y119.638 E4.13339
G1 X151.268 Y120.229 E4.16896
G1 X151.859 Y120.882 E4.20455
G1 X152.385 Y121.592 E4.24026
G1 X152.716 Y122.147 E4.26636
G1 X152.833 Y122.347 E4.27574
G1 X153.205 Y123.142 E4.31123
G1 X153.492 Y123.959 E4.34623
G1 X153.701 Y124.801 E4.38125
G1 X153.825 Y125.652 E4.41604
G1 X153.864 Y126.500 E4.45033
G1 X153.825 Y127.346 E4.48455
G1 X153.701 Y128.197 E4.51933
G1 X153.650 Y128.415 E4.52835
G1 X153.492 Y129.039 E4.55435
G1 X153.205 Y129.856 E4.58935
G1 X152.833 Y130.651 E4.62484
G1 X152.385 Y131.406 E4.66032
G1 X152.245 Y131.598 E4.66992
G1 X151.859 Y132.116 E4.69603
G1 X151.701 Y132.291 E4.70557
G1 X151.268 Y132.769 E4.73163
G1 X150.792 Y133.201 E4.75759
G1 X150.616 Y133.360 E4.76719
G1 X149.907 Y133.881 E4.80274
G1 X149.354 Y134.214 E4.82882
G1 X149.151 Y134.332 E4.83833
G1 X148.359 Y134.702 E4.87363
G1 X147.538 Y134.993 E4.90885
G1 X146.698 Y135.200 E4.94379
G1 X145.847 Y135.324 E4.97855
G1 X145.008 Y135.363 E5.01251
G1 X144.153 Y135.324 E5.04711
G1 X143.300 Y135.200 E5.08192
G1 X142.462 Y134.993 E5.11683
G1 X141.640 Y134.702 E5.15207
G1 X140.849 Y134.332 E5.18736
G1 X140.093 Y133.881 E5.22292
G1 X139.385 Y133.360 E5.25844
G1 X138.730 Y132.769 E5.29410
G1 X138.139 Y132.115 E5.32973
G1 X137.617 Y131.407 E5.36526
G1 X137.167 Y130.650 E5.40087
G1 X136.797 Y129.858 E5.43618
G1 X136.506 Y129.037 E5.47139
G1 X136.299 Y128.197 E5.50633
G1 X136.175 Y127.347 E5.54106
G1 X136.134 Y126.500 E5.57533
G1 X136.175 Y125.651 E5.60969
G1 X136.299 Y124.801 E5.64442
G1 X136.491 Y124.019 E5.67693
G1 X137.191 Y124.163 F7800.000
G1 X137.460 Y123.409 E5.70930 F1008.000
G1 X137.799 Y122.681 E5.74176
G1 X138.213 Y121.986 E5.77445
G1 X138.693 Y121.336 E5.80710
G1 X139.236 Y120.735 E5.83983
G1 X139.837 Y120.192 E5.87257
G1 X140.488 Y119.712 E5.90524
G1 X141.182 Y119.298 E5.93789
G1 X141.908 Y118.959 E5.97031
G1 X142.664 Y118.690 E6.00271
G1 X143.435 Y118.500 E6.03479
G1 X144.218 Y118.386 E6.06679
G1 X145.004 Y118.350 E6.09859
G1 X145.782 Y118.386 E6.13004
G1 X146.564 Y118.500 E6.16199
G1 X147.336 Y118.690 E6.19412
G1 X148.090 Y118.959 E6.22648
G1 X148.818 Y119.298 E6.25894
G1 X149.512 Y119.712 E6.29159
G1 X150.163 Y120.192 E6.32428
G1 X150.762 Y120.735 E6.35694
G1 X151.306 Y121.335 E6.38970
G1 X151.789 Y121.986 E6.42243
G1 X152.101 Y122.510 E6.44706
G1 X152.200 Y122.681 E6.45506
G1 X152.542 Y123.410 E6.48760
G1 X152.807 Y124.163 E6.51986
G1 X152.999 Y124.935 E6.55203
G1 X153.113 Y125.718 E6.58399
G1 X153.149 Y126.500 E6.61564
G1 X153.113 Y127.280 E6.64720
G1 X152.999 Y128.063 E6.67916
G1 X152.956 Y128.246 E6.68675
G1 X152.807 Y128.835 E6.71134
G1 X152.542 Y129.588 E6.74359
G1 X152.201 Y130.317 E6.77613
G1 X151.789 Y131.012 E6.80876
G1 X151.670 Y131.174 E6.81689
G1 X151.306 Y131.663 E6.84149
G1 X151.172 Y131.812 E6.84963
G1 X150.762 Y132.263 E6.87425
G1 X150.313 Y132.671 E6.89878
G1 X150.163 Y132.806 E6.90692
G1 X149.512 Y133.286 E6.93960
G1 X148.990 Y133.599 E6.96421
G1 X148.818 Y133.700 E6.97226
G1 X148.090 Y134.039 E7.00472
G1 X147.336 Y134.308 E7.03707
G1 X146.564 Y134.498 E7.06921
G1 X145.782 Y134.612 E7.10115
G1 X145.003 Y134.648 E7.13264
G1 X144.218 Y134.612 E7.16440
G1 X143.435 Y134.498 E7.19640
G1 X142.664 Y134.308 E7.22849
G1 X141.908 Y134.039 E7.26089
G1 X141.182 Y133.700 E7.29331
G1 X140.488 Y133.286 E7.32595
G1 X139.837 Y132.806 E7.35862
G1 X139.236 Y132.263 E7.39137
G1 X138.693 Y131.662 E7.42409
G1 X138.213 Y131.012 E7.45674
G1 X137.799 Y130.317 E7.48944
G1 X137.460 Y129.589 E7.52190
G1 X137.191 Y128.835 E7.55425
G1 X137.001 Y128.063 E7.58639
G1 X136.887 Y127.281 E7.61833
G1 X136.849 Y126.500 E7.64992
G1 X136.887 Y125.717 E7.68159
G1 X137.001 Y124.935 E7.71353
G1 X137.177 Y124.221 E7.74323
G1 X136.922 Y123.868 F7800.000
G1 F1800.000 E6.74323
G92 E0
G1 X104.536 Y125.585 F7800.000
G1 E1.00000 F1800.000
G1 X104.581 Y126.500 E1.03705 F1440.000
G1 X104.536 Y127.414 E1.07400
G1 X104.403 Y128.332 E1.11152
G1 X104.180 Y129.239 E1.14927
G1 X103.865 Y130.127 E1.18734
G1 X103.466 Y130.983 E1.22549
G1 X102.979 Y131.802 E1.26402
G1 X102.414 Y132.567 E1.30243
G1 X101.775 Y133.274 E1.34095
G1 X101.067 Y133.914 E1.37954
G1 X100.302 Y134.477 E1.41789
G1 X99.484 Y134.965 E1.45638
G1 X98.629 Y135.364 E1.49454
G1 X97.741 Y135.679 E1.53261
G1 X96.834 Y135.902 E1.57034
G1 X95.913 Y136.036 E1.60798
G1 X95.010 Y136.078 E1.64449
G1 X94.087 Y136.036 E1.68184
G1 X93.167 Y135.902 E1.71942
G1 X92.260 Y135.679 E1.75717
G1 X91.372 Y135.364 E1.79524
G1 X90.516 Y134.965 E1.83339
G1 X89.698 Y134.477 E1.87192
G1 X88.932 Y133.913 E1.91033
G1 X88.227 Y133.274 E1.94879
G1 X87.588 Y132.570 E1.98723
G1 X87.019 Y131.800 E2.02591
G1 X86.535 Y130.984 E2.06424
G1 X86.132 Y130.123 E2.10268
G1 X85.822 Y129.242 E2.14043
G1 X85.597 Y128.332 E2.17829
G1 X85.463 Y127.411 E2.21590
G1 X85.421 Y126.500 E2.25276
G1 X85.463 Y125.587 E2.28970
G1 X85.597 Y124.666 E2.32732
G1 X85.822 Y123.756 E2.36518
G1 X86.132 Y122.875 E2.40293
G1 X86.535 Y122.014 E2.44137
G1 X87.019 Y121.198 E2.47970
G1 X87.588 Y120.428 E2.51838
G1 X88.227 Y119.724 E2.55682
G1 X88.932 Y119.085 E2.59528
G1 X89.698 Y118.521 E2.63369
G1 X90.516 Y118.033 E2.67222
G1 X91.372 Y117.634 E2.71037
G1 X92.260 Y117.319 E2.74844
G1 X93.167 Y117.096 E2.78619
G1 X94.087 Y116.962 E2.82377
G1 X95.012 Y116.920 E2.86120
G1 X95.913 Y116.962 E2.89763
G1 X96.834 Y117.096 E2.93526
G1 X97.741 Y117.319 E2.97299
G1 X98.629 Y117.634 E3.01106
G1 X99.484 Y118.033 E3.04923
G1 X100.302 Y118.521 E3.08772
G1 X101.067 Y119.084 E3.12607
G1 X101.775 Y119.724 E3.16465
G1 X102.414 Y120.431 E3.20318
G1 X102.979 Y121.196 E3.24159
G1 X103.466 Y122.015 E3.28012
G1 X103.865 Y122.871 E3.31827
G1 X104.180 Y123.759 E3.35634
G1 X104.403 Y124.666 E3.39409
G1 X104.528 Y125.525 E3.42919
G1 X103.825 Y125.651 F7800.000
G1 X103.866 Y126.500 E3.46354 F1440.000
G1 X103.825 Y127.347 E3.49782
G1 X103.701 Y128.197 E3.53254
G1 X103.494 Y129.037 E3.56749
G1 X103.203 Y129.858 E3.60270
G1 X102.833 Y130.650 E3.63800
G1 X102.383 Y131.407 E3.67362
G1 X101.861 Y132.115 E3.70915
G1 X101.270 Y132.769 E3.74477
G1 X100.615 Y133.360 E3.78044
G1 X99.907 Y133.881 E3.81595
G1 X99.151 Y134.332 E3.85152
G1 X98.360 Y134.702 E3.88681
G1 X97.538 Y134.993 E3.92204
G1 X96.700 Y135.200 E3.95695
G1 X95.847 Y135.324 E3.99177
G1 X95.006 Y135.363 E4.02581
G1 X94.153 Y135.324 E4.06032
G1 X93.302 Y135.200 E4.09509
G1 X92.462 Y134.993 E4.13003
G1 X91.641 Y134.702 E4.16524
G1 X90.849 Y134.332 E4.20055
G1 X90.093 Y133.881 E4.23614
G1 X89.384 Y133.360 E4.27169
G1 X88.732 Y132.769 E4.30725
G1 X88.141 Y132.116 E4.34284
G1 X87.615 Y131.406 E4.37855
G1 X87.167 Y130.651 E4.41403
G1 X86.795 Y129.856 E4.44952
G1 X86.508 Y129.039 E4.48452
G1 X86.299 Y128.197 E4.51954
G1 X86.175 Y127.346 E4.55433
G1 X86.136 Y126.500 E4.58854
G1 X86.175 Y125.652 E4.62283
G1 X86.299 Y124.801 E4.65762
G1 X86.508 Y123.959 E4.69264
G1 X86.795 Y123.142 E4.72764
G1 X87.167 Y122.347 E4.76314
G1 X87.615 Y121.592 E4.79861
G1 X88.141 Y120.882 E4.83432
G1 X88.732 Y120.229 E4.86992
G1 X89.384 Y119.638 E4.90548
G1 X90.093 Y119.117 E4.94103
G1 X90.849 Y118.666 E4.97662
G1 X91.641 Y118.296 E5.01192
G1 X92.462 Y118.005 E5.04714
G1 X93.302 Y117.798 E5.08208
G1 X94.153 Y117.674 E5.11684
G1 X95.007 Y117.635 E5.15141
G1 X95.847 Y117.674 E5.18540
G1 X96.700 Y117.798 E5.22021
G1 X97.538 Y118.005 E5.25512
G1 X98.360 Y118.296 E5.29036
G1 X99.151 Y118.666 E5.32565
G1 X99.907 Y119.117 E5.36122
G1 X100.615 Y119.638 E5.39673
G1 X101.270 Y120.229 E5.43239
G1 X101.861 Y120.883 E5.46802
G1 X102.383 Y121.591 E5.50355
G1 X102.833 Y122.348 E5.53916
G1 X103.203 Y123.140 E5.57447
G1 X103.494 Y123.961 E5.60968
G1 X103.701 Y124.801 E5.64462
G1 X103.817 Y125.591 E5.67693
G1 X103.113 Y125.717 F7800.000
G1 X103.151 Y126.500 E5.70860 F1008.000
G1 X103.113 Y127.281 E5.74019
G1 X102.999 Y128.063 E5.77213
G1 X102.809 Y128.835 E5.80426
G1 X102.540 Y129.589 E5.83662
G1 X102.201 Y130.317 E5.86908
G1 X101.787 Y131.012 E5.90178
G1 X101.307 Y131.662 E5.93442
G1 X100.764 Y132.263 E5.96715
G1 X100.163 Y132.806 E5.99989
G1 X99.512 Y133.286 E6.03257
G1 X98.818 Y133.700 E6.06521
G1 X98.092 Y134.039 E6.09763
G1 X97.336 Y134.308 E6.13003
G1 X96.565 Y134.498 E6.16212
G1 X95.782 Y134.612 E6.19412
G1 X95.001 Y134.648 E6.22569
G1 X94.218 Y134.612 E6.25737
G1 X93.436 Y134.498 E6.28931
G1 X92.664 Y134.308 E6.32145
G1 X91.910 Y134.039 E6.35380
G1 X91.182 Y133.700 E6.38626
G1 X90.488 Y133.286 E6.41891
G1 X89.837 Y132.806 E6.45160
G1 X89.238 Y132.263 E6.48427
G1 X88.694 Y131.663 E6.51702
G1 X88.211 Y131.012 E6.54975
G1 X87.800 Y130.317 E6.58238
G1 X87.458 Y129.588 E6.61493
G1 X87.193 Y128.835 E6.64718
G1 X87.001 Y128.063 E6.67935
G1 X86.887 Y127.280 E6.71131
G1 X86.851 Y126.500 E6.74288
G1 X86.887 Y125.718 E6.77452
G1 X87.001 Y124.935 E6.80649
G1 X87.193 Y124.163 E6.83866
G1 X87.458 Y123.410 E6.87091
G1 X87.800 Y122.681 E6.90346
G1 X88.211 Y121.986 E6.93608
G1 X88.694 Y121.335 E6.96882
G1 X89.238 Y120.735 E7.00157
G1 X89.837 Y120.192 E7.03424
G1 X90.488 Y119.712 E7.06692
G1 X91.182 Y119.298 E7.09958
G1 X91.910 Y118.959 E7.13204
G1 X92.664 Y118.690 E7.16439
G1 X93.436 Y118.500 E7.19653
G1 X94.218 Y118.386 E7.22847
G1 X95.002 Y118.350 E7.26019
G1 X95.782 Y118.386 E7.29172
G1 X96.565 Y118.500 E7.32372
G1 X97.336 Y118.690 E7.35581
G1 X98.092 Y118.959 E7.38821
G1 X98.818 Y119.298 E7.42063
G1 X99.512 Y119.712 E7.45327
G1 X100.163 Y120.192 E7.48594
G1 X100.764 Y120.735 E7.51869
G1 X101.307 Y121.336 E7.55142
G1 X101.787 Y121.986 E7.58406
G1 X102.201 Y122.681 E7.61676
G1 X102.540 Y123.409 E7.64922
G1 X102.809 Y124.163 E7.68157
G1 X102.999 Y124.935 E7.71371
G1 X103.105 Y125.658 E7.74323
G1 X103.474 Y125.889 F7800.000
G1 X109.447 Y107.317 F7800.000
G1 X109.105 Y107.176 E7.75819 F540.000
G1 X108.796 Y106.968 E7.77324
G1 X108.531 Y106.703 E7.78839
G1 X108.323 Y106.394 E7.80345
G1 X108.182 Y106.052 E7.81841
G1 X108.108 Y105.684 E7.83355
G1 X108.108 Y105.314 E7.84851
G1 X108.182 Y104.946 E7.86366
G1 X108.323 Y104.604 E7.87862
G1 X108.531 Y104.295 E7.89368
G1 X108.796 Y104.030 E7.90883
G1 X109.105 Y103.822 E7.92388
G1 X109.447 Y103.681 E7.93884
G1 X109.815 Y103.607 E7.95400
G1 X110.185 Y103.607 E7.96895
G1 X110.553 Y103.681 E7.98410
G1 X110.895 Y103.822 E7.99906
G1 X111.204 Y104.030 E8.01411
G1 X111.469 Y104.295 E8.02927
G1 X111.677 Y104.604 E8.04432
G1 X111.818 Y104.946 E8.05928
G1 X111.892 Y105.314 E8.07443
G1 X111.892 Y105.684 E8.08939
G1 X111.818 Y106.052 E8.10454
G1 X111.677 Y106.394 E8.11950
G1 X111.469 Y106.703 E8.13455
G1 X111.204 Y106.968 E8.14970
G1 X110.895 Y107.176 E8.16476
G1 X110.553 Y107.317 E8.17972
G1 X110.185 Y107.391 E8.19487
G1 X109.815 Y107.391 E8.20982
G1 X109.506 Y107.332 E8.22255
G1 X109.169 Y107.561 F7800.000
G1 F1800.000 E7.22255
G92 E0
G1 X128.108 Y105.684 F7800.000
G1 E1.00000 F1800.000
G1 X128.108 Y105.314 E1.01496 F540.000
G1 X128.182 Y104.946 E1.03011
G1 X128.323 Y104.604 E1.04507
G1 X128.531 Y104.295 E1.06012
G1 X128.796 Y104.030 E1.07528
G1 X129.105 Y103.822 E1.09033
G1 X129.447 Y103.681 E1.10529
G1 X129.815 Y103.607 E1.12044
G1 X130.185 Y103.607 E1.13540
G1 X130.553 Y103.681 E1.15054
G1 X130.895 Y103.822 E1.16551
G1 X131.204 Y104.030 E1.18056
G1 X131.469 Y104.295 E1.19571
G1 X131.677 Y104.604 E1.21076
G1 X131.818 Y104.946 E1.22572
G1 X131.892 Y105.314 E1.24088
G1 X131.892 Y105.684 E1.25583
G1 X131.818 Y106.052 E1.27098
G1 X131.677 Y106.394 E1.28594
G1 X131.469 Y106.703 E1.30099
G1 X131.204 Y106.968 E1.31615
G1 X130.895 Y107.176 E1.33120
G1 X130.553 Y107.317 E1.34616
G1 X130.185 Y107.391 E1.36131
G1 X129.815 Y107.391 E1.37627
G1 X129.447 Y107.317 E1.39142
G1 X129.105 Y107.176 E1.40638
G1 X128.796 Y106.968 E1.42143
G1 X128.531 Y106.703 E1.43659
G1 X128.323 Y106.394 E1.45164
G1 X128.182 Y106.052 E1.46660
G1 X128.117 Y105.743 E1.47933
G1 X127.776 Y105.521 F7800.000
G1 X128.029 Y113.384 F7800.000
G1 X128.504 Y113.408 E1.49852 F1440.000
G1 X128.998 Y113.482 E1.51871
G1 X129.485 Y113.602 E1.53900
