; generated by Slic3r 1.1.1 on 2014-04-28 at 14:48:53

; perimeters extrusion width = 0.40mm
; infill extrusion width = 0.67mm
; solid infill extrusion width = 0.67mm
; top infill extrusion width = 0.67mm

G21 ; set units to millimeters
M107
M104 S200 ; set temperature
G28 ; home all axes
G1 Z5 F5000 ; lift nozzle

M109 S200 ; wait for temperature to be reached
G90 ; use absolute coordinates
G92 E0
M82 ; use absolute distances for extrusion
G1 F1800.000 E-1.00000
G92 E0
G1 Z0.400 F7800.000
G1 X100.327 Y115.345 F7800.000
G1 E1.00000 F1800.000
G1 X102.083 Y113.845 E1.09331 F673.934
G1 X104.074 Y113.064 E1.17974
G1 X115.574 Y110.564 E1.65535
G1 X117.000 Y110.411 E1.71332
G1 X123.000 Y110.411 E1.95580
G1 X124.426 Y110.564 E2.01377
G1 X135.926 Y113.064 E2.48938
G1 X138.065 Y113.935 E2.58269
G1 X139.781 Y115.479 E2.67601
G1 X140.874 Y117.514 E2.76932
G1 X141.214 Y119.625 E2.85575
G1 X141.214 Y122.875 E2.98709
G1 X140.817 Y125.150 E3.08041
G1 X139.673 Y127.155 E3.17372
G1 X137.917 Y128.655 E3.26703
G1 X135.757 Y129.470 E3.36034
G1 X134.500 Y129.589 E3.41137
G1 X105.500 Y129.589 E4.58335
G1 X103.225 Y129.192 E4.67667
G1 X101.220 Y128.048 E4.76998
G1 X99.720 Y126.292 E4.86329
G1 X98.905 Y124.132 E4.95661
G1 X98.786 Y122.875 E5.00764
G1 X98.786 Y119.625 E5.13898
G1 X99.183 Y117.350 E5.23229
G1 X100.297 Y115.397 E5.32318
G1 F1800.000 E4.32318
G92 E0
G1 X109.914 Y120.536 F7800.000
G1 E1.00000 F1800.000
G1 X117.196 Y118.953 E1.30117 F673.934
G1 X122.804 Y118.953 E1.52777
G1 X130.086 Y120.536 E1.82894
G1 X130.031 Y121.047 E1.84968
G1 X109.969 Y121.047 E2.66043
G1 X109.921 Y120.596 E2.67875
G1 X106.614 Y120.523 F7800.000
G1 X117.120 Y118.239 E3.11323 F673.934
G1 X122.880 Y118.239 E3.34603
G1 X133.386 Y120.523 E3.78051
G1 X133.386 Y121.761 E3.83054
G1 X106.614 Y121.761 E4.91247
G1 X106.614 Y120.583 E4.96007
G1 X105.900 Y119.947 F7800.000
G1 X117.043 Y117.525 E5.42091 F600.000
G1 X122.957 Y117.525 E5.65991
G1 X134.100 Y119.947 E6.12075
G1 X134.100 Y122.475 E6.22290
G1 X105.900 Y122.475 E7.36255
G1 X105.900 Y120.007 E7.46228
G1 X106.271 Y120.096 F7800.000
G1 X114.778 Y120.549 F7800.000
G1 X114.735 Y120.506 E7.46471 F600.000
G1 X115.224 Y119.891 E7.49647
G1 X115.882 Y120.549 E7.53405
G1 X116.131 Y119.694 E7.57003
G1 X116.986 Y120.549 E7.61888
G1 X118.090 Y120.549 E7.66351
G1 X117.039 Y119.497 E7.72363
G1 X118.097 Y119.451 E7.76644
G1 X119.195 Y120.549 E7.82919
G1 X119.201 Y119.451 E7.87355
G1 X120.299 Y120.549 E7.93630
G1 X120.305 Y119.451 E7.98067
G1 X121.403 Y120.549 E8.04342
G1 X121.410 Y119.451 E8.08779
G1 X122.508 Y120.549 E8.15053
G1 X122.514 Y119.451 E8.19490
G1 X123.612 Y120.549 E8.25765
G1 X123.859 Y119.692 E8.29369
G1 X124.716 Y120.549 E8.34265
G1 X125.315 Y120.043 E8.37432
G1 X125.270 Y119.999 E8.37685
G1 X125.784 Y120.332 F7800.000
G1 X127.447 Y120.511 E8.41619 F600.000
G1 X114.216 Y120.332 F7800.000
G1 X112.553 Y120.511 E8.45553 F600.000
M106 S255
G1 F1800.000 E7.45553
G92 E0
G1 Z0.600 F7800.000
G1 X117.107 Y118.125 F7800.000
G1 E1.00000 F1800.000
G1 X122.893 Y118.125 E1.06547 F733.812
G1 X133.500 Y120.431 E1.18833
G1 X133.500 Y121.875 E1.20467
G1 X106.500 Y121.875 E1.51025
G1 X106.500 Y120.431 E1.52659
G1 X117.049 Y118.138 E1.64877
G1 X117.064 Y117.725 F7800.000
G1 X122.936 Y117.725 E1.71522 F733.812
G1 X133.900 Y120.109 E1.84221
G1 X133.900 Y122.275 E1.86673
G1 X106.100 Y122.275 E2.18136
G1 X106.100 Y120.109 E2.20588
G1 X117.006 Y117.738 E2.33219
G1 X117.021 Y117.325 F7800.000
G1 X122.979 Y117.325 E2.39961 F600.000
G1 X134.300 Y119.786 E2.53073
G1 X134.300 Y122.675 E2.56343
G1 X105.700 Y122.675 E2.88711
G1 X105.700 Y119.786 E2.91981
G1 X116.963 Y117.338 E3.05026
G1 X117.246 Y117.656 F7800.000
G1 X106.868 Y120.680 F7800.000
G1 X106.821 Y120.726 E3.05142 F600.000
G1 X106.899 Y121.554 E3.06619
G1 X108.024 Y120.429 E3.09448
G1 X109.180 Y120.177 E3.11551
G1 X107.803 Y121.554 E3.15012
G1 X108.708 Y121.554 E3.16620
G1 X110.336 Y119.926 E3.20713
G1 X111.492 Y119.675 E3.22816
G1 X109.613 Y121.554 E3.27540
G1 X110.518 Y121.554 E3.29149
G1 X112.648 Y119.423 E3.34505
G1 X113.805 Y119.172 E3.36609
G1 X111.423 Y121.554 E3.42597
G1 X112.328 Y121.554 E3.44205
G1 X114.961 Y118.921 E3.50825
G1 X116.117 Y118.669 E3.52929
G1 X113.232 Y121.554 E3.60181
G1 X114.137 Y121.554 E3.61789
G1 X117.245 Y118.446 E3.69602
G1 X118.149 Y118.446 E3.71210
G1 X115.042 Y121.554 E3.79022
G1 X115.947 Y121.554 E3.80631
G1 X119.054 Y118.446 E3.88443
G1 X119.959 Y118.446 E3.90052
G1 X116.852 Y121.554 E3.97864
G1 X117.757 Y121.554 E3.99473
G1 X120.864 Y118.446 E4.07285
G1 X121.769 Y118.446 E4.08894
G1 X118.661 Y121.554 E4.16706
G1 X119.566 Y121.554 E4.18314
G1 X122.674 Y118.446 E4.26127
G1 X123.450 Y118.575 E4.27525
G1 X120.471 Y121.554 E4.35014
G1 X121.376 Y121.554 E4.36623
G1 X124.193 Y118.737 E4.43705
G1 X124.936 Y118.898 E4.45058
G1 X122.281 Y121.554 E4.51734
G1 X123.186 Y121.554 E4.53343
G1 X125.679 Y119.060 E4.59613
G1 X126.423 Y119.221 E4.60965
G1 X124.090 Y121.554 E4.66829
G1 X124.995 Y121.554 E4.68437
G1 X127.166 Y119.383 E4.73895
G1 X127.909 Y119.544 E4.75247
G1 X125.900 Y121.554 E4.80299
G1 X126.805 Y121.554 E4.81907
G1 X128.652 Y119.706 E4.86553
G1 X129.396 Y119.868 E4.87905
G1 X127.710 Y121.554 E4.92144
G1 X128.615 Y121.554 E4.93752
G1 X130.139 Y120.029 E4.97585
G1 X130.882 Y120.191 E4.98937
G1 X129.519 Y121.554 E5.02364
G1 X130.424 Y121.554 E5.03973
G1 X131.625 Y120.352 E5.06993
G1 X132.369 Y120.514 E5.08345
G1 X131.329 Y121.554 E5.10959
G1 X132.234 Y121.554 E5.12568
G1 X133.112 Y120.675 E5.14776
G1 X133.139 Y121.554 E5.16338
G1 X133.179 Y121.514 E5.16438
G1 F1800.000 E4.16438
G92 E0
G1 Z0.800 F7800.000
G1 X133.500 Y121.875 F7800.000
G1 E1.00000 F1800.000
G1 X106.500 Y121.875 E1.30558 F734.366
G1 X106.500 Y120.431 E1.32192
G1 X117.107 Y118.125 E1.44478
G1 X122.893 Y118.125 E1.51025
G1 X133.500 Y120.431 E1.63311
G1 X133.500 Y121.815 E1.64877
G1 X133.900 Y122.275 F7800.000
G1 X106.100 Y122.275 E1.96340 F734.366
G1 X106.100 Y120.109 E1.98792
G1 X117.064 Y117.725 E2.11491
G1 X122.936 Y117.725 E2.18136
G1 X133.900 Y120.109 E2.30835
G1 X133.900 Y122.215 E2.33219
G1 X134.300 Y122.675 F7800.000
G1 X105.700 Y122.675 E2.65587 F600.000
G1 X105.700 Y119.786 E2.68857
G1 X117.021 Y117.325 E2.81970
G1 X122.979 Y117.325 E2.88711
G1 X134.300 Y119.786 E3.01824
G1 X134.300 Y122.615 E3.05026
G1 X133.954 Y122.475 F7800.000
G1 X133.132 Y120.680 F7800.000
G1 X133.179 Y120.726 E3.05142 F600.000
G1 X133.101 Y121.554 E3.06619
G1 X131.976 Y120.429 E3.09448
G1 X132.197 Y121.554 E3.11486
G1 X130.820 Y120.177 E3.14946
G1 X129.664 Y119.926 E3.17050
G1 X131.292 Y121.554 E3.21142
G1 X130.387 Y121.554 E3.22751
G1 X128.508 Y119.675 E3.27475
G1 X127.352 Y119.423 E3.29579
G1 X129.482 Y121.554 E3.34935
G1 X128.577 Y121.554 E3.36543
G1 X126.195 Y119.172 E3.42531
G1 X125.039 Y118.921 E3.44635
G1 X127.672 Y121.554 E3.51255
G1 X126.768 Y121.554 E3.52864
G1 X123.883 Y118.669 E3.60116
G1 X122.755 Y118.446 E3.62159
G1 X125.863 Y121.554 E3.69971
G1 X124.958 Y121.554 E3.71580
G1 X121.851 Y118.446 E3.79392
G1 X120.946 Y118.446 E3.81001
G1 X124.053 Y121.554 E3.88813
G1 X123.148 Y121.554 E3.90422
G1 X120.041 Y118.446 E3.98234
G1 X119.136 Y118.446 E3.99842
G1 X122.243 Y121.554 E4.07655
G1 X121.339 Y121.554 E4.09263
G1 X118.231 Y118.446 E4.17075
G1 X117.326 Y118.446 E4.18684
G1 X120.434 Y121.554 E4.26496
G1 X119.529 Y121.554 E4.28105
G1 X116.550 Y118.575 E4.35594
G1 X115.807 Y118.737 E4.36946
G1 X118.624 Y121.554 E4.44028
G1 X117.719 Y121.554 E4.45637
G1 X115.064 Y118.898 E4.52313
G1 X114.321 Y119.060 E4.53666
G1 X116.814 Y121.554 E4.59936
G1 X115.910 Y121.554 E4.61544
G1 X113.577 Y119.221 E4.67408
G1 X112.834 Y119.383 E4.68760
G1 X115.005 Y121.554 E4.74218
G1 X114.100 Y121.554 E4.75827
G1 X112.091 Y119.544 E4.80878
G1 X111.348 Y119.706 E4.82230
G1 X113.195 Y121.554 E4.86876
G1 X112.290 Y121.554 E4.88484
G1 X110.604 Y119.868 E4.92723
G1 X109.861 Y120.029 E4.94075
G1 X111.385 Y121.554 E4.97908
G1 X110.481 Y121.554 E4.99517
G1 X109.118 Y120.191 E5.02943
G1 X108.375 Y120.352 E5.04296
G1 X109.576 Y121.554 E5.07316
G1 X108.671 Y121.554 E5.08925
G1 X107.631 Y120.514 E5.11539
G1 X106.888 Y120.675 E5.12891
G1 X107.766 Y121.554 E5.15099
G1 X106.861 Y121.554 E5.16707
G1 X106.821 Y121.514 E5.16808
G1 F1800.000 E4.16808
G92 E0
G1 Z1.000 F7800.000
G1 X106.500 Y121.875 F7800.000
G1 E1.00000 F1800.000
G1 X106.500 Y120.431 E1.01634 F733.809
G1 X117.107 Y118.125 E1.13920
G1 X122.893 Y118.125 E1.20467
G1 X133.500 Y120.431 E1.32753
G1 X133.500 Y121.875 E1.34387
G1 X106.560 Y121.875 E1.64877
G1 X106.100 Y122.275 F7800.000
G1 X106.100 Y120.109 E1.67329 F733.809
G1 X117.064 Y117.725 E1.80028
G1 X122.936 Y117.725 E1.86673
G1 X133.900 Y120.109 E1.99372
G1 X133.900 Y122.275 E2.01824
G1 X106.160 Y122.275 E2.33219
G1 X105.700 Y122.675 F7800.000
G1 X105.700 Y119.786 E2.36488 F600.000
G1 X117.021 Y117.325 E2.49601
G1 X122.979 Y117.325 E2.56343
G1 X134.300 Y119.786 E2.69455
G1 X134.300 Y122.675 E2.72725
G1 X105.760 Y122.675 E3.05026
G1 X105.900 Y122.329 F7800.000
G1 X106.868 Y120.680 F7800.000
G1 X106.821 Y120.726 E3.05142 F600.000
G1 X106.899 Y121.554 E3.06619
G1 X108.024 Y120.429 E3.09448
G1 X109.180 Y120.177 E3.11551
G1 X107.803 Y121.554 E3.15012
G1 X108.708 Y121.554 E3.16620
G1 X110.336 Y119.926 E3.20713
G1 X111.492 Y119.675 E3.22816
G1 X109.613 Y121.554 E3.27540
G1 X110.518 Y121.554 E3.29149
G1 X112.648 Y119.423 E3.34505
G1 X113.805 Y119.172 E3.36608
G1 X111.423 Y121.554 E3.42596
G1 X112.328 Y121.554 E3.44205
G1 X114.961 Y118.921 E3.50825
G1 X116.117 Y118.669 E3.52928
G1 X113.232 Y121.554 E3.60180
G1 X114.137 Y121.554 E3.61789
G1 X117.245 Y118.446 E3.69601
G1 X118.149 Y118.446 E3.71210
G1 X115.042 Y121.554 E3.79022
G1 X115.947 Y121.554 E3.80631
G1 X119.054 Y118.446 E3.88443
G1 X119.959 Y118.446 E3.90051
G1 X116.852 Y121.554 E3.97863
G1 X117.757 Y121.554 E3.99472
G1 X120.864 Y118.446 E4.07284
G1 X121.769 Y118.446 E4.08893
G1 X118.661 Y121.554 E4.16705
G1 X119.566 Y121.554 E4.18314
G1 X122.674 Y118.446 E4.26126
G1 X123.450 Y118.575 E4.27524
G1 X120.471 Y121.554 E4.35013
G1 X121.376 Y121.554 E4.36622
G1 X124.193 Y118.737 E4.43704
G1 X124.936 Y118.898 E4.45057
G1 X122.281 Y121.554 E4.51733
G1 X123.186 Y121.554 E4.53342
G1 X125.679 Y119.060 E4.59612
G1 X126.423 Y119.221 E4.60964
G1 X124.090 Y121.554 E4.66828
G1 X124.995 Y121.554 E4.68436
G1 X127.166 Y119.383 E4.73894
G1 X127.909 Y119.544 E4.75246
G1 X125.900 Y121.554 E4.80298
G1 X126.805 Y121.554 E4.81906
G1 X128.652 Y119.706 E4.86551
G1 X129.396 Y119.868 E4.87904
G1 X127.710 Y121.554 E4.92143
G1 X128.615 Y121.554 E4.93751
G1 X130.139 Y120.029 E4.97584
G1 X130.882 Y120.191 E4.98936
G1 X129.519 Y121.554 E5.02363
G1 X130.424 Y121.554 E5.03971
G1 X131.625 Y120.352 E5.06992
G1 X132.369 Y120.514 E5.08344
G1 X131.329 Y121.554 E5.10958
G1 X132.234 Y121.554 E5.12566
G1 X133.112 Y120.675 E5.14774
G1 X133.139 Y121.554 E5.16336
G1 X133.179 Y121.514 E5.16437
G1 F1800.000 E4.16437
G92 E0
G1 Z1.200 F7800.000
G1 X133.100 Y121.475 F7800.000
G1 E1.00000 F1800.000
G1 X106.900 Y121.475 E1.29652 F754.750
G1 X106.900 Y120.753 E1.30469
G1 X117.150 Y118.525 E1.42341
G1 X122.850 Y118.525 E1.48791
G1 X133.100 Y120.753 E1.60663
G1 X133.100 Y121.415 E1.61412
G1 X133.500 Y121.875 F7800.000
G1 X106.500 Y121.875 E1.91970 F754.750
G1 X106.500 Y120.431 E1.93604
G1 X117.107 Y118.125 E2.05890
G1 X122.893 Y118.125 E2.12437
G1 X133.500 Y120.431 E2.24723
G1 X133.500 Y121.815 E2.26289
G1 X133.900 Y122.275 F7800.000
G1 X106.100 Y122.275 E2.57752 F754.750
G1 X106.100 Y120.109 E2.60204
G1 X117.064 Y117.725 E2.72903
G1 X122.936 Y117.725 E2.79548
G1 X133.900 Y120.109 E2.92247
G1 X133.900 Y122.215 E2.94631
G1 X134.300 Y122.675 F7800.000
G1 X105.700 Y122.675 E3.27000 F600.000
G1 X105.700 Y119.786 E3.30269
G1 X117.021 Y117.325 E3.43382
G1 X122.979 Y117.325 E3.50124
G1 X134.300 Y119.786 E3.63236
G1 X134.300 Y122.615 E3.66438
G1 X133.954 Y122.475 F7800.000
G1 X131.223 Y120.674 F7800.000
G1 X131.267 Y120.719 E3.66549 F600.000
G1 X130.787 Y121.154 E3.67701
G1 X130.053 Y120.420 E3.69546
G1 X129.872 Y121.154 E3.70890
G1 X128.884 Y120.166 E3.73374
G1 X128.956 Y121.154 E3.75135
G1 X127.714 Y119.911 E3.78258
G1 X126.544 Y119.657 E3.80386
G1 X128.041 Y121.154 E3.84149
G1 X127.125 Y121.154 E3.85776
G1 X125.375 Y119.403 E3.90178
G1 X124.205 Y119.149 E3.92306
G1 X126.210 Y121.154 E3.97347
G1 X125.295 Y121.154 E3.98975
G1 X123.035 Y118.894 E4.04655
G1 X122.072 Y118.846 E4.06370
G1 X124.379 Y121.154 E4.12171
G1 X123.464 Y121.154 E4.13798
G1 X121.157 Y118.846 E4.19599
G1 X120.241 Y118.846 E4.21227
G1 X122.548 Y121.154 E4.27027
G1 X121.633 Y121.154 E4.28655
G1 X119.326 Y118.846 E4.34456
G1 X118.410 Y118.846 E4.36083
G1 X120.718 Y121.154 E4.41884
G1 X119.802 Y121.154 E4.43511
G1 X117.495 Y118.846 E4.49312
G1 X116.688 Y118.954 E4.50760
G1 X118.887 Y121.154 E4.56289
G1 X117.971 Y121.154 E4.57917
G1 X115.936 Y119.118 E4.63035
G1 X115.184 Y119.281 E4.64403
G1 X117.056 Y121.154 E4.69110
G1 X116.141 Y121.154 E4.70737
G1 X114.432 Y119.445 E4.75033
G1 X113.680 Y119.608 E4.76401
G1 X115.225 Y121.154 E4.80287
G1 X114.310 Y121.154 E4.81914
G1 X112.928 Y119.772 E4.85388
G1 X112.176 Y119.935 E4.86756
G1 X113.394 Y121.154 E4.89819
G1 X112.479 Y121.154 E4.91447
G1 X111.424 Y120.099 E4.94099
G1 X110.672 Y120.262 E4.95467
G1 X111.564 Y121.154 E4.97708
G1 X110.648 Y121.154 E4.99335
G1 X109.920 Y120.426 E5.01166
G1 X109.733 Y121.154 E5.02502
G1 X109.168 Y120.589 E5.03921
G1 X108.775 Y121.111 E5.05083
G1 X108.817 Y121.154 E5.05190
G1 X108.435 Y120.953 F7800.000
G1 X107.105 Y121.096 E5.07569 F600.000
G1 X131.565 Y120.953 F7800.000
G1 X132.895 Y121.096 E5.09947 F600.000
G1 F1800.000 E4.09947
G92 E0
G1 Z1.400 F7800.000
G1 X131.351 Y121.075 F7800.000
G1 E1.00000 F1800.000
G1 X108.649 Y121.075 E1.25694 F802.502
G1 X108.618 Y120.789 E1.26019
G1 X117.193 Y118.925 E1.35951
G1 X117.940 Y118.925 E1.36796
G1 X117.940 Y119.925 E1.37928
G1 X122.060 Y119.925 E1.42590
G1 X122.060 Y118.925 E1.43722
G1 X122.807 Y118.925 E1.44567
G1 X131.382 Y120.789 E1.54499
G1 X131.358 Y121.015 E1.54757
G1 X133.100 Y120.753 F7800.000
G1 X133.100 Y121.475 E1.55573 F802.502
G1 X106.900 Y121.475 E1.85226
G1 X106.900 Y120.753 E1.86042
G1 X117.150 Y118.525 E1.97915
G1 X118.340 Y118.525 E1.99261
G1 X118.340 Y119.525 E2.00393
G1 X121.660 Y119.525 E2.04150
G1 X121.660 Y118.525 E2.05282
G1 X122.850 Y118.525 E2.06628
G1 X133.041 Y120.741 E2.18432
G1 X133.500 Y120.431 F7800.000
G1 X133.500 Y121.875 E2.20067 F802.502
G1 X106.500 Y121.875 E2.50624
G1 X106.500 Y120.431 E2.52259
G1 X117.107 Y118.125 E2.64544
G1 X118.740 Y118.125 E2.66392
G1 X118.740 Y119.125 E2.67524
G1 X121.260 Y119.125 E2.70376
G1 X121.260 Y118.125 E2.71507
G1 X122.893 Y118.125 E2.73355
G1 X133.441 Y120.418 E2.85573
G1 X133.900 Y120.109 F7800.000
G1 X133.900 Y122.275 E2.88025 F802.502
G1 X106.100 Y122.275 E3.19488
G1 X106.100 Y120.109 E3.21940
G1 X117.064 Y117.725 E3.34639
G1 X119.140 Y117.725 E3.36988
G1 X119.140 Y118.725 E3.38120
G1 X120.860 Y118.725 E3.40066
G1 X120.860 Y117.725 E3.41198
G1 X122.936 Y117.725 E3.43547
G1 X133.841 Y120.096 E3.56178
G1 X134.300 Y119.786 F7800.000
G1 X134.300 Y122.675 E3.59448 F600.000
G1 X105.700 Y122.675 E3.91816
G1 X105.700 Y119.786 E3.95086
G1 X117.021 Y117.325 E4.08198
G1 X119.540 Y117.325 E4.11049
G1 X119.540 Y118.325 E4.12181
G1 X120.460 Y118.325 E4.13222
G1 X120.460 Y117.325 E4.14353
G1 X122.979 Y117.325 E4.17204
G1 X134.241 Y119.773 E4.30249
G1 X134.076 Y120.117 F7800.000
G1 X127.502 Y120.711 F7800.000
G1 X127.460 Y120.754 E4.30356 F600.000
G1 X127.115 Y120.190 E4.31530
G1 X126.552 Y120.754 E4.32946
G1 X126.369 Y120.028 E4.34276
G1 X125.643 Y120.754 E4.36099
G1 X125.623 Y119.866 E4.37678
G1 X124.735 Y120.754 E4.39909
G1 X123.827 Y120.754 E4.41524
G1 X124.877 Y119.704 E4.44163
G1 X124.131 Y119.542 E4.45520
G1 X122.919 Y120.754 E4.48568
G1 X122.011 Y120.754 E4.50182
G1 X123.385 Y119.380 E4.53637
G1 X122.610 Y119.246 E4.55035
G1 X122.381 Y119.475 E4.55609
G1 X121.610 Y120.246 F7800.000
G1 X121.102 Y120.754 E4.56885 F600.000
G1 X120.701 Y120.246 E4.58034
G1 X120.194 Y120.754 E4.59310
G1 X119.793 Y120.246 E4.60459
G1 X119.286 Y120.754 E4.61735
G1 X118.885 Y120.246 E4.62884
